!!!!SEGMENT: pl-cz--ii-168_morawski-jozef-bernard--ave-maris-stella.krn
!!!cenid: 18xx:980
!!!COM: Morawski, Józef Bernard
!!!COM-rismid: pe30040596
!!!CDT: 1809-1859
!!!CNT: Polish
!!!OTL: Ave maris stella
!!!PDT:
!!!AGN: Sacred
!!!SMS-siglum: PL-CZ
!!!SMS-shelfmark: II-168
!!!SMS-shelfwork: W
!!!SMS-variant:
!!!SMS-altvar:
!!!NIFC-rismid: 300000845
!!!URL-scan: http://repozytorium.nifc.pl/skany/pl-cz-nut--ii-168
!!!ONB-nifc:
!!!OMD:Andante gratioso
**kern	**dynam	**kern	**dynam	**kern	**text	**dynam	**kern	**text	**dynam	**kern	**text	**dynam	**kern	**dynam	**kern	**dynam	**kern	**dynam	**kern	**kern	**dynam	**kern	**dynam	**kern	**dynam	**kern	**dynam	**kern	**dynam	**kern	**dynam
*group3	*	*group3	*	*group4	*	*	*group4	*	*	*group4	*	*	*group3	*	*group3	*	*group3	*	*group2	*group2	*	*group2	*	*group1	*	*group1	*	*group1	*	*group1	*
*part15	*part15	*part14	*part14	*part13	*part13	*part13	*part12	*part12	*part12	*part11	*part11	*part11	*part10	*part10	*part9	*part9	*part8	*part8	*part7	*part6	*part6	*part5	*part5	*part4	*part4	*part3	*part3	*part2	*part2	*part1	*part1
*staff15	*	*staff14	*	*staff13	*staff13	*	*staff12	*staff12	*	*staff11	*staff11	*	*staff10	*	*staff9	*	*staff8	*	*staff7	*staff6	*	*staff5	*	*staff4	*	*staff3	*	*staff2	*	*staff1	*
*Iempty	*	*Icello	*	*Iempty	*	*	*Itenor	*	*	*Isoprn	*	*	*Iviola	*	*Iempty	*	*Iempty	*	*Iempty	*Icor	*	*Icor	*	*Ifagot	*	*Iempty	*	*Ioboe	*	*Iflt	*
*I"Basſo	*	*I"Cello	*	*I"Basſ	*	*	*I"Tenor	*	*	*I"Sopr.	*	*	*I"Viola	*	*I"2do	*	*I"Vol:1.	*	*I"Trombi	*I"Corni	*	*I"Corni D.	*	*I"Fagotti	*	*I"Clarito A.	*	*I"Oboi	*	*I"Flauto	*
*clefF4	*	*clefF4	*	*clefF4	*	*	*clefC4	*	*	*clefC1	*	*	*clefC3	*	*clefG2	*	*clefG2	*	*clefG2	*clefG2	*	*clefG2	*	*clefF4	*	*clefG2	*	*clefG2	*	*clefG2	*
*ITrd0c0	*	*	*	*	*	*	*	*	*	*	*	*	*	*	*	*	*	*	*ITrd2c3	*ITrd2c3	*	*ITrd6c10	*	*	*	*ITrd2c3	*	*	*	*	*
*k[f#c#g#]	*	*k[f#c#g#]	*	*k[f#c#g#]	*	*	*k[f#c#g#]	*	*	*k[f#c#g#]	*	*	*k[f#c#g#]	*	*k[f#c#g#]	*	*k[f#c#g#]	*	*k[f#c#g#]	*k[f#c#g#]	*	*k[f#c#g#]	*	*k[f#c#g#]	*	*k[f#c#g#]	*	*k[f#c#g#]	*	*k[f#c#g#]	*
*A:	*	*A:	*	*A:	*	*	*A:	*	*	*A:	*	*	*A:	*	*A:	*	*A:	*	*A:	*A:	*	*A:	*	*A:	*	*A:	*	*A:	*	*A:	*
*M4/4	*	*M4/4	*	*M4/4	*	*	*M4/4	*	*	*M4/4	*	*	*M4/4	*	*M4/4	*	*M4/4	*	*M4/4	*M4/4	*	*M4/4	*	*M4/4	*	*M4/4	*	*M4/4	*	*M4/4	*
*met(c)	*	*met(c)	*	*met(c)	*	*	*met(c)	*	*	*met(c)	*	*	*met(c)	*	*met(c)	*	*met(c)	*	*met(c)	*met(c)	*	*met(c)	*	*met(c)	*	*met(c)	*	*met(c)	*	*met(c)	*
=1	=1	=1	=1	=1	=1	=1	=1	=1	=1	=1	=1	=1	=1	=1	=1	=1	=1	=1	=1	=1	=1	=1	=1	=1	=1	=1	=1	=1	=1	=1	=1
!LO:TX:b:t=pierwej uprzedzić Akord.	!	!	!	!	!	!	!	!	!	!	!	!	!	!	!	!	!	!	!	!	!	!	!	!	!	!	!	!	!	!	!
!LO:TX:b:i:t=pizz	!	!	!	!	!	!	!	!	!	!	!	!	!	!LO:DY:rj	!	!	!	!	!	!	!	!	!	!	!	!LO:SIC:v:s:n=1:t=1a	!	!	!	!	!
4AA/	.	4AA/	p	1r	.	.	1r	.	.	2r	.	.	1A	p	1c#	.	16r	pp	1r	1r	.	1r	.	1r	.	1g# 1cc#	pp	1r	.	1r	.
.	.	.	.	.	.	.	.	.	.	.	.	.	.	.	.	.	(<16c#/LL	.	.	.	.	.	.	.	.	.	.	.	.	.	.
.	.	.	.	.	.	.	.	.	.	.	.	.	.	.	.	.	16e/	.	.	.	.	.	.	.	.	.	.	.	.	.	.
.	.	.	.	.	.	.	.	.	.	.	.	.	.	.	.	.	16a/JJ)	.	.	.	.	.	.	.	.	.	.	.	.	.	.
4r	.	8r	.	.	.	.	.	.	.	.	.	.	.	.	.	.	8cc#/L	.	.	.	.	.	.	.	.	.	.	.	.	.	.
!	!	!LO:TX:t=P:problem:all\right:global	!	!	!	!	!	!	!	!	!	!	!	!	!	!	!	!	!	!	!	!	!	!	!	!	!	!	!	!	!
.	.	8E\	.	.	.	.	.	.	.	.	.	.	.	.	.	.	8e/J	.	.	.	.	.	.	.	.	.	.	.	.	.	.
*	*	*	*	*	*	*	*	*	*	*	*	*	*	*	*	*	*rep	*	*	*	*	*	*	*	*	*	*	*	*	*	*
4AA/	.	4AA/	.	.	.	.	.	.	.	4r	.	.	.	.	.	.	16r	.	.	.	.	.	.	.	.	.	.	.	.	.	.
.	.	.	.	.	.	.	.	.	.	.	.	.	.	.	.	.	(16c#/LL	.	.	.	.	.	.	.	.	.	.	.	.	.	.
.	.	.	.	.	.	.	.	.	.	.	.	.	.	.	.	.	16e/	.	.	.	.	.	.	.	.	.	.	.	.	.	.
.	.	.	.	.	.	.	.	.	.	.	.	.	.	.	.	.	16a/JJ)	.	.	.	.	.	.	.	.	.	.	.	.	.	.
*	*	*	*	*	*	*	*	*	*	*2\right	*	*	*	*	*	*	*	*	*	*	*	*	*	*	*	*	*	*	*	*	*
!	!	!	!	!	!	!	!	!	!	!LO:TX:t=P:problem:all\right:global	!	!	!	!	!	!	!	!	!	!	!	!	!	!	!	!	!	!	!	!	!
4r	.	8r	.	.	.	.	.	.	.	8.cc#\	A-	.	.	.	.	.	8cc#/L	.	.	.	.	.	.	.	.	.	.	.	.	.	.
.	.	8E\	.	.	.	.	.	.	.	.	.	.	.	.	.	.	8e/J	.	.	.	.	.	.	.	.	.	.	.	.	.	.
.	.	.	.	.	.	.	.	.	.	16cc#\	-ve	.	.	.	.	.	.	.	.	.	.	.	.	.	.	.	.	.	.	.	.
*	*	*	*	*	*	*	*	*	*	*	*	*	*	*	*	*	*Xrep	*	*	*	*	*	*	*	*	*	*	*	*	*	*
=2	=2	=2	=2	=2	=2	=2	=2	=2	=2	=2	=2	=2	=2	=2	=2	=2	=2	=2	=2	=2	=2	=2	=2	=2	=2	=2	=2	=2	=2	=2	=2
*	*	*	*	*	*	*	*	*	*	*	*	*	*	*	*	*	*rep	*	*	*	*	*	*	*	*	*	*	*	*	*	*
4AA/	.	4AA/	.	1r	.	.	1r	.	.	2cc#\	Ma-	.	1G#	.	1c#	.	16r	.	1r	1r	.	1e	.	1r	.	1a 1cc#	.	1r	.	1r	.
.	.	.	.	.	.	.	.	.	.	.	.	.	.	.	.	.	(<16c#/LL	.	.	.	.	.	.	.	.	.	.	.	.	.	.
.	.	.	.	.	.	.	.	.	.	.	.	.	.	.	.	.	16e/	.	.	.	.	.	.	.	.	.	.	.	.	.	.
.	.	.	.	.	.	.	.	.	.	.	.	.	.	.	.	.	16a/JJ)	.	.	.	.	.	.	.	.	.	.	.	.	.	.
4r	.	8r	.	.	.	.	.	.	.	.	.	.	.	.	.	.	8cc#/L	.	.	.	.	.	.	.	.	.	.	.	.	.	.
.	.	8E\	.	.	.	.	.	.	.	.	.	.	.	.	.	.	8e/J	.	.	.	.	.	.	.	.	.	.	.	.	.	.
4AA/	.	4AA/	.	.	.	.	.	.	.	(>16b\LL	.	.	.	.	.	.	16r	.	.	.	.	.	.	.	.	.	.	.	.	.	.
.	.	.	.	.	.	.	.	.	.	16a\	.	.	.	.	.	.	(<16c#/LL	.	.	.	.	.	.	.	.	.	.	.	.	.	.
.	.	.	.	.	.	.	.	.	.	16g#\	.	.	.	.	.	.	16e/	.	.	.	.	.	.	.	.	.	.	.	.	.	.
.	.	.	.	.	.	.	.	.	.	16a\JJ	.	.	.	.	.	.	16a/JJ)	.	.	.	.	.	.	.	.	.	.	.	.	.	.
4r	.	8r	.	.	.	.	.	.	.	8ff#\)	.	.	.	.	.	.	8cc#/L	.	.	.	.	.	.	.	.	.	.	.	.	.	.
.	.	8E\	.	.	.	.	.	.	.	8ee\	-ris	.	.	.	.	.	8e/J	.	.	.	.	.	.	.	.	.	.	.	.	.	.
*	*	*	*	*	*	*	*	*	*	*	*	*	*	*	*	*	*Xrep	*	*	*	*	*	*	*	*	*	*	*	*	*	*
=3	=3	=3	=3	=3	=3	=3	=3	=3	=3	=3	=3	=3	=3	=3	=3	=3	=3	=3	=3	=3	=3	=3	=3	=3	=3	=3	=3	=3	=3	=3	=3
4EE/	.	4EE/	.	1r	.	.	1r	.	.	2ee\	stel-	.	1G#	.	1B	.	16r	.	1r	1r	.	1e	.	1r	.	1g# 1b	.	1r	.	1r	.
.	.	.	.	.	.	.	.	.	.	.	.	.	.	.	.	.	(<16d/LL	.	.	.	.	.	.	.	.	.	.	.	.	.	.
.	.	.	.	.	.	.	.	.	.	.	.	.	.	.	.	.	16e/	.	.	.	.	.	.	.	.	.	.	.	.	.	.
.	.	.	.	.	.	.	.	.	.	.	.	.	.	.	.	.	16g#/JJ)	.	.	.	.	.	.	.	.	.	.	.	.	.	.
4r	.	8r	.	.	.	.	.	.	.	.	.	.	.	.	.	.	8b/L	.	.	.	.	.	.	.	.	.	.	.	.	.	.
.	.	8E\	.	.	.	.	.	.	.	.	.	.	.	.	.	.	8d/J	.	.	.	.	.	.	.	.	.	.	.	.	.	.
*	*	*	*	*	*	*	*	*	*	*	*	*	*	*	*	*	*rep	*	*	*	*	*	*	*	*	*	*	*	*	*	*
4EE/	.	4EE/	.	.	.	.	.	.	.	4b\	-la	.	.	.	.	.	16r	.	.	.	.	.	.	.	.	.	.	.	.	.	.
.	.	.	.	.	.	.	.	.	.	.	.	.	.	.	.	.	(<16d/LL	.	.	.	.	.	.	.	.	.	.	.	.	.	.
.	.	.	.	.	.	.	.	.	.	.	.	.	.	.	.	.	16e/	.	.	.	.	.	.	.	.	.	.	.	.	.	.
.	.	.	.	.	.	.	.	.	.	.	.	.	.	.	.	.	16g#/JJ)	.	.	.	.	.	.	.	.	.	.	.	.	.	.
4r	.	8r	.	.	.	.	.	.	.	8b\	a-	.	.	.	.	.	8b/L	.	.	.	.	.	.	.	.	.	.	.	.	.	.
!	!	!	!	!	!	!	!	!	!	!LO:TX:a:t=cis	!	!	!	!	!	!	!	!	!	!	!	!	!	!	!	!	!	!	!	!	!
.	.	8E\	.	.	.	.	.	.	.	8cc#\	-ve	.	.	.	.	.	8d/J	.	.	.	.	.	.	.	.	.	.	.	.	.	.
*	*	*	*	*	*	*	*	*	*	*	*	*	*	*	*	*	*Xrep	*	*	*	*	*	*	*	*	*	*	*	*	*	*
=4	=4	=4	=4	=4	=4	=4	=4	=4	=4	=4	=4	=4	=4	=4	=4	=4	=4	=4	=4	=4	=4	=4	=4	=4	=4	=4	=4	=4	=4	=4	=4
*	*	*	*	*	*	*	*	*	*	*	*	*	*	*	*	*	*rep	*	*	*	*	*	*	*	*	*	*	*	*	*	*
!LO:TX:t=P:problem:all\right:global	!	!	!	!	!	!	!	!	!	!	!	!	!	!	!	!	!	!	!	!	!	!	!	!	!	!	!	!	!	!	!
4E\	.	4BB/	.	1r	.	.	1r	.	.	2dd\	Ma-	.	1G#	.	1B	.	16r	.	1r	1r	.	1e	.	1r	.	1g# 1b	.	1r	.	1r	.
.	.	.	.	.	.	.	.	.	.	.	.	.	.	.	.	.	(<16d/LL	.	.	.	.	.	.	.	.	.	.	.	.	.	.
.	.	.	.	.	.	.	.	.	.	.	.	.	.	.	.	.	16e/	.	.	.	.	.	.	.	.	.	.	.	.	.	.
.	.	.	.	.	.	.	.	.	.	.	.	.	.	.	.	.	16g#/JJ)	.	.	.	.	.	.	.	.	.	.	.	.	.	.
4r	.	8r	.	.	.	.	.	.	.	.	.	.	.	.	.	.	8b/L	.	.	.	.	.	.	.	.	.	.	.	.	.	.
.	.	8E\	.	.	.	.	.	.	.	.	.	.	.	.	.	.	8d/J	.	.	.	.	.	.	.	.	.	.	.	.	.	.
4EE/	.	4GG#/	.	.	.	.	.	.	.	(>16cc#\LL	.	.	.	.	.	.	16r	.	.	.	.	.	.	.	.	.	.	.	.	.	.
.	.	.	.	.	.	.	.	.	.	16b\	.	.	.	.	.	.	(<16d/LL	.	.	.	.	.	.	.	.	.	.	.	.	.	.
.	.	.	.	.	.	.	.	.	.	16a#X\	.	.	.	.	.	.	16e/	.	.	.	.	.	.	.	.	.	.	.	.	.	.
.	.	.	.	.	.	.	.	.	.	16b\JJ	.	.	.	.	.	.	16g#/JJ)	.	.	.	.	.	.	.	.	.	.	.	.	.	.
4r	.	8r	.	.	.	.	.	.	.	8ee\)	.	.	.	.	.	.	8b/L	.	.	.	.	.	.	.	.	.	.	.	.	.	.
.	.	8E\	.	.	.	.	.	.	.	8dd\	-ris	.	.	.	.	.	8d/J	.	.	.	.	.	.	.	.	.	.	.	.	.	.
*	*	*	*	*	*	*	*	*	*	*	*	*	*	*	*	*	*Xrep	*	*	*	*	*	*	*	*	*	*	*	*	*	*
=5	=5	=5	=5	=5	=5	=5	=5	=5	=5	=5	=5	=5	=5	=5	=5	=5	=5	=5	=5	=5	=5	=5	=5	=5	=5	=5	=5	=5	=5	=5	=5
4AA/	.	4AA/	.	1r	.	.	1r	.	.	4b#X\	stel-	.	1A	.	1c#	.	16r	.	1r	1r	.	1e	.	1r	.	1a 1cc#	.	1r	.	1r	.
.	.	.	.	.	.	.	.	.	.	.	.	.	.	.	.	.	(<16c#/LL	.	.	.	.	.	.	.	.	.	.	.	.	.	.
.	.	.	.	.	.	.	.	.	.	.	.	.	.	.	.	.	16e/	.	.	.	.	.	.	.	.	.	.	.	.	.	.
.	.	.	.	.	.	.	.	.	.	.	.	.	.	.	.	.	16a/JJ)	.	.	.	.	.	.	.	.	.	.	.	.	.	.
4r	.	8r	.	.	.	.	.	.	.	4cc#\	-la	.	.	.	.	.	8cc#/L	.	.	.	.	.	.	.	.	.	.	.	.	.	.
.	.	8E\	.	.	.	.	.	.	.	.	.	.	.	.	.	.	8f#/J	.	.	.	.	.	.	.	.	.	.	.	.	.	.
*	*	*	*	*	*	*	*	*	*	*	*	*	*	*	*	*	*rep	*	*	*	*	*	*	*	*	*	*	*	*	*	*
4A\	.	4AA/	.	.	.	.	.	.	.	4r	.	.	.	.	.	.	16r	.	.	.	.	.	.	.	.	.	.	.	.	.	.
.	.	.	.	.	.	.	.	.	.	.	.	.	.	.	.	.	(<16c#/LL	.	.	.	.	.	.	.	.	.	.	.	.	.	.
.	.	.	.	.	.	.	.	.	.	.	.	.	.	.	.	.	16e/	.	.	.	.	.	.	.	.	.	.	.	.	.	.
.	.	.	.	.	.	.	.	.	.	.	.	.	.	.	.	.	16a/JJ	.	.	.	.	.	.	.	.	.	.	.	.	.	.
4r	.	8r	.	.	.	.	.	.	.	8ee\	De-	.	.	.	.	.	8cc#/L	.	.	.	.	.	.	.	.	.	.	.	.	.	.
.	.	8E\	.	.	.	.	.	.	.	8ee\	-i	.	.	.	.	.	8f#/J)	.	.	.	.	.	.	.	.	.	.	.	.	.	.
*	*	*	*	*	*	*	*	*	*	*	*	*	*	*	*	*	*Xrep	*	*	*	*	*	*	*	*	*	*	*	*	*	*
=6	=6	=6	=6	=6	=6	=6	=6	=6	=6	=6	=6	=6	=6	=6	=6	=6	=6	=6	=6	=6	=6	=6	=6	=6	=6	=6	=6	=6	=6	=6	=6
4C#/	.	4C#/	.	1r	.	.	1r	.	.	(>2ee\	Ma-	.	1A	.	1e	.	16r	.	1r	1r	.	1r	.	1c#	.	1e 1a	.	1r	.	1r	.
.	.	.	.	.	.	.	.	.	.	.	.	.	.	.	.	.	(<16e/LL	.	.	.	.	.	.	.	.	.	.	.	.	.	.
.	.	.	.	.	.	.	.	.	.	.	.	.	.	.	.	.	16a/	.	.	.	.	.	.	.	.	.	.	.	.	.	.
.	.	.	.	.	.	.	.	.	.	.	.	.	.	.	.	.	16cc#/JJ)	.	.	.	.	.	.	.	.	.	.	.	.	.	.
4r	.	8r	.	.	.	.	.	.	.	.	.	.	.	.	.	.	8ee/L	.	.	.	.	.	.	.	.	.	.	.	.	.	.
.	.	8A\	.	.	.	.	.	.	.	.	.	.	.	.	.	.	8a/J	.	.	.	.	.	.	.	.	.	.	.	.	.	.
*	*	*	*	*	*	*	*	*	*	*	*	*	*	*	*	*	*rep	*	*	*	*	*	*	*	*	*	*	*	*	*	*
4C#/	.	4C#/	.	.	.	.	.	.	.	16ff#\LL)	.	.	.	.	.	.	16r	.	.	.	.	.	.	.	.	.	.	.	.	.	.
.	.	.	.	.	.	.	.	.	.	16ee\	.	.	.	.	.	.	(<16e/LL	.	.	.	.	.	.	.	.	.	.	.	.	.	.
.	.	.	.	.	.	.	.	.	.	16dd\	.	.	.	.	.	.	16a/	.	.	.	.	.	.	.	.	.	.	.	.	.	.
.	.	.	.	.	.	.	.	.	.	16cc#\JJ	.	.	.	.	.	.	16cc#/JJ)	.	.	.	.	.	.	.	.	.	.	.	.	.	.
4r	.	8r	.	.	.	.	.	.	.	16dd\LL	.	.	.	.	.	.	8ee/L	.	.	.	.	.	.	.	.	.	.	.	.	.	.
.	.	.	.	.	.	.	.	.	.	16cc#\	.	.	.	.	.	.	.	.	.	.	.	.	.	.	.	.	.	.	.	.	.
.	.	8C#/	.	.	.	.	.	.	.	16b\	.	.	.	.	.	.	8a/J	.	.	.	.	.	.	.	.	.	.	.	.	.	.
.	.	.	.	.	.	.	.	.	.	16a\JJ	.	.	.	.	.	.	.	.	.	.	.	.	.	.	.	.	.	.	.	.	.
*	*	*	*	*	*	*	*	*	*	*	*	*	*	*	*	*	*Xrep	*	*	*	*	*	*	*	*	*	*	*	*	*	*
!!LO:LB:g=original
=7	=7	=7	=7	=7	=7	=7	=7	=7	=7	=7	=7	=7	=7	=7	=7	=7	=7	=7	=7	=7	=7	=7	=7	=7	=7	=7	=7	=7	=7	=7	=7
*	*	*	*	*	*	*	*	*	*	*	*	*	*	*	*	*	*	*	*	*	*	*	*	*	*	*^	*	*	*	*	*
*2\right	*	*2\right	*	*	*	*	*	*	*	*	*	*	*	*	*	*	*	*	*	*	*	*	*	*	*	*	*	*	*	*	*	*
!LO:TX:t=P:problem:all\right:global	!	!LO:TX:t=P:problem:all\right:global	!	!	!	!	!	!	!	!	!	!	!	!	!	!	!	!	!	!	!	!	!	!	!	!	!	!	!	!	!	!
!	!	!LO:TX:t=P:problem:przekreślone nuty w tym takcie	!	!	!	!	!	!	!	!	!	!	!	!	!	!	!	!	!	!	!	!	!	!LO:TX:t=P:problem:all\right:global	!	!LO:TX:t=P:problem:all\right:global	!LO:TX:t=P:problem:all\right:global	!	!	!	!	!
4D\	.	4D/	.	1r	.	.	1r	.	.	8g#/	.	.	4A/	.	4f#/	.	8r	.	1r	1r	.	1r	.	4F#\	.	4f#/	4d\	.	4r	.	4r	.
.	.	.	.	.	.	.	.	.	.	8f#/	-ter	.	.	.	.	.	8cc#/	.	.	.	.	.	.	.	.	.	.	.	.	.	.	.
*	*	*	*	*	*	*	*	*	*	*	*	*	*2\right	*	*2\right	*	*2\right	*	*	*	*	*	*	*2\right	*	*2\right	*2\right	*	*2\right	*	*2\right	*
!	!	!	!	!	!	!	!	!	!	!	!	!LO:HP:b	!LO:TX:t=P:problem:all\right:global	!	!LO:TX:t=P:problem:all\right:global	!	!LO:TX:t=P:problem:all\right:global	!	!	!	!	!	!	!	!	!	!	!	!LO:TX:t=P:problem:all\right:global	!	!LO:TX:t=P:problem:all\right:global	!
4r	.	8r	.	.	.	.	.	.	.	(>2aa\	ma-	<	2D/	.	2ff#\	.	(>2aa\	<	.	.	.	.	.	2D\	.	2a/	2f#\	.	2aa	.	(>2aa\	<
.	.	8D/	<	.	.	.	.	.	.	.	.	.	.	.	.	.	.	.	.	.	.	.	.	.	.	.	.	.	.	.	.	.
2r	.	2d\	[[	.	.	.	.	.	.	.	.	.	.	.	.	.	.	.	.	.	.	.	.	.	.	.	.	.	.	.	.	.
!	!	!	!	!	!	!	!	!	!	!	!	!	!	!	!	!	!	!	!	!	!	!	!	!	!	!	!	!	!LO:TX:t=P:problem:wszystkie caudy w dół z prawej strony	!	!	!
.	.	.	.	.	.	.	.	.	.	8gg#\)	.	.	4d\	.	8ee\L	.	8gg#\L)	.	.	.	.	.	.	4r	.	8g#/L	8e\L	.	8ee\L	.	8gg#\L	.
.	.	.	.	.	.	.	.	.	.	8ff#\	-ter	[	.	.	8dd\J	.	8ff#\J	[	.	.	.	.	.	.	.	8f#/J	8d\J	.	8dd\J	.	8ff#\J)	[[
=8	=8	=8	=8	=8	=8	=8	=8	=8	=8	=8	=8	=8	=8	=8	=8	=8	=8	=8	=8	=8	=8	=8	=8	=8	=8	=8	=8	=8	=8	=8	=8	=8
4E\	.	2e\	>	1r	.	.	1r	.	.	8ff#\L	ma-	.	2e\	.	8dd\L	.	(>8ff#\L	.	1ryy	1r	.	2r	.	2D\	.	8f#/	8d\	.	8dd\	.	8ff#\	.
.	.	.	.	.	.	.	.	.	.	[>8ee\J	.	.	.	.	8cc#\J	.	8ee\J	.	.	.	.	.	.	.	.	4e/	4c#\	.	4cc#\	.	4ee\	.
4r	.	.	.	.	.	.	.	.	.	16ee\LL]	.	.	.	.	(<16b/LL	.	16dd\LL	.	.	.	.	.	.	.	.	.	.	.	.	.	.	.
.	.	.	.	.	.	.	.	.	.	16cc#\JJ	.	.	.	.	16a/	.	16cc#\	.	.	.	.	.	.	.	.	.	.	.	.	.	.	.
.	.	.	.	.	.	.	.	.	.	16b\LL	.	.	.	.	16g#/	.	16b\	.	.	.	.	.	.	.	.	8c#/	8A\	.	8a/	.	8cc#\	.
.	.	.	.	.	.	.	.	.	.	16cc#\JJ	-ter	.	.	.	16a/JJ)	.	16cc#\JJ)	.	.	.	.	.	.	.	.	.	.	.	.	.	.	.
*	*	*	*	*	*	*	*	*	*	*	*	*	*	*	*	*	*	*	*	*	*	*2\right	*	*	*	*	*	*	*	*	*	*
!LO:TX:a:t=arco	!LO:DY:rj	!	!	!	!	!	!	!	!	!	!	!	!	!	!	!	!	!	!	!	!	!LO:TX:t=P:problem:all\right:global	!	!	!	!	!	!	!	!	!	!
2E\	pp	2E/	]	.	.	.	.	.	.	[>4ee\	ma-	.	2e\	.	4.G#/	.	[>4ee\	.	.	.	.	[>2e\	.	2r	.	2d/	4E\	.	2g#/	.	2b\	.
.	.	.	.	.	.	.	.	.	.	16ee\LL]	.	.	.	.	.	.	16ee\LL]	.	.	.	.	.	.	.	.	.	4c#\	.	.	.	.	.
.	.	.	.	.	.	.	.	.	.	16dd\	.	.	.	.	.	.	(>16dd\	.	.	.	.	.	.	.	.	.	.	.	.	.	.	.
.	.	.	.	.	.	.	.	.	.	16b\	.	.	.	.	16B/LL	.	16b\	.	.	.	.	.	.	.	.	.	.	.	.	.	.	.
.	.	.	.	.	.	.	.	.	.	16g#\JJ	-ter	.	.	.	16d/JJ	.	16g#\JJ	.	.	.	.	.	.	.	.	.	.	.	.	.	.	.
=9	=9	=9	=9	=9	=9	=9	=9	=9	=9	=9	=9	=9	=9	=9	=9	=9	=9	=9	=9	=9	=9	=9	=9	=9	=9	=9	=9	=9	=9	=9	=9	=9
!	!	!	!	!	!	!	!	!	!	!	!	!	!	!	!	!	!	!	!	!	!	!	!	!	!	!LO:N:vis=1	!	!LO:DY:rj	!	!	!	!
[<2AA/	.	(>2E\	pp	1r	.	.	2r	.	.	(>2b\	al-	pp	2.e\	.	2d/	pp	2b/	pp	1ryy	1r	.	4e\]	pp	1r	.	2e/	2.d\	p	2g#/	p	2b\	pp
.	.	.	.	.	.	.	.	.	.	.	.	.	.	.	.	.	.	.	.	.	.	4r	.	.	.	.	.	.	.	.	.	.
4AA/]	.	4A\)	.	.	.	.	4r	.	.	4a\)	-ma	.	.	.	4c#/	.	4a/)	.	.	.	.	2r	.	.	.	4c#/	.	.	4a/	.	4a/	.
!	!	!	!	!	!	!	!LO:TX:t=P:problem:wszystkie caudy w dół z prawej strony	!	!	!	!	!	!	!	!	!	!	!	!	!	!	!	!	!	!	!	!	!	!	!	!	!
4r	.	4r	.	.	.	.	8.c#\	A-	.	4r	.	.	4r	.	4r	.	4r	.	.	.	.	.	.	.	.	4r	4r	.	4r	.	4r	.
.	.	.	.	.	.	.	16c#\	-ve	.	.	.	.	.	.	.	.	.	.	.	.	.	.	.	.	.	.	.	.	.	.	.	.
*	*	*	*	*	*	*	*	*	*	*	*	*	*	*	*	*	*	*	*	*	*	*	*	*	*	*v	*v	*	*	*	*	*
=10	=10	=10	=10	=10	=10	=10	=10	=10	=10	=10	=10	=10	=10	=10	=10	=10	=10	=10	=10	=10	=10	=10	=10	=10	=10	=10	=10	=10	=10	=10	=10
!	!	!	!	!	!	!	!	!	!	!	!	!	!	!	!	!	!	!	!	!	!	!	!	!	!	!LO:TX:a:t=Solo	!	!	!	!	!
4AA/	.	4AA/	.	1r	.	.	2c#\	Ma-	.	2r	.	.	8A/	.	8c#/	.	16r	.	1ryy	1r	.	1r	.	1A 1c#	.	2cc#\	.	1r	.	1r	.
.	.	.	.	.	.	.	.	.	.	.	.	.	.	.	.	.	(<16c#/LL	.	.	.	.	.	.	.	.	.	.	.	.	.	.
.	.	.	.	.	.	.	.	.	.	.	.	.	4A/	.	4c#/	.	16e/	.	.	.	.	.	.	.	.	.	.	.	.	.	.
.	.	.	.	.	.	.	.	.	.	.	.	.	.	.	.	.	16a/JJ)	.	.	.	.	.	.	.	.	.	.	.	.	.	.
4r	.	8r	.	.	.	.	.	.	.	.	.	.	.	.	.	.	8cc#/L	.	.	.	.	.	.	.	.	.	.	.	.	.	.
.	.	8E\	.	.	.	.	.	.	.	.	.	.	8A/	.	8c#/	.	8e/J	.	.	.	.	.	.	.	.	.	.	.	.	.	.
*	*	*	*	*	*	*	*	*	*	*	*	*	*rep	*	*rep	*	*rep	*	*	*	*	*	*	*	*	*	*	*	*	*	*
4A\	.	4AA/	.	.	.	.	(16B\LL	.	.	4r	.	.	8A/	.	8c#/	.	16r	.	.	.	.	.	.	.	.	(>16b\LL	.	.	.	.	.
.	.	.	.	.	.	.	16A\	.	.	.	.	.	.	.	.	.	(<16c#/LL	.	.	.	.	.	.	.	.	16a\	.	.	.	.	.
.	.	.	.	.	.	.	16G#\	.	.	.	.	.	4A/	.	4c#/	.	16e/	.	.	.	.	.	.	.	.	16g#\	.	.	.	.	.
.	.	.	.	.	.	.	16A\JJ)	.	.	.	.	.	.	.	.	.	16a/JJ)	.	.	.	.	.	.	.	.	16a\JJ)	.	.	.	.	.
4r	.	8r	.	.	.	.	8f#\	.	.	8.cc#\	a-	.	.	.	.	.	8cc#/L	.	.	.	.	.	.	.	.	8ff#\L	.	.	.	.	.
.	.	8E\	.	.	.	.	8e\	-ris	.	.	.	.	8A/	.	8c#/	.	8e/J	.	.	.	.	.	.	.	.	8ee\J	.	.	.	.	.
.	.	.	.	.	.	.	.	.	.	16cc#\	-ve	.	.	.	.	.	.	.	.	.	.	.	.	.	.	.	.	.	.	.	.
*	*	*	*	*	*	*	*	*	*	*	*	*	*Xrep	*	*Xrep	*	*Xrep	*	*	*	*	*	*	*	*	*	*	*	*	*	*
=11	=11	=11	=11	=11	=11	=11	=11	=11	=11	=11	=11	=11	=11	=11	=11	=11	=11	=11	=11	=11	=11	=11	=11	=11	=11	=11	=11	=11	=11	=11	=11
4EE/	.	4BB/	.	1r	.	.	2e\	a-	.	[>2dd\	Ma-	.	8G#/	.	8B/	.	16r	.	1ryy	1E 1e	.	1r	.	1G# 1A	.	2ee\	.	1r	.	1r	.
.	.	.	.	.	.	.	.	.	.	.	.	.	.	.	.	.	(<16d/LL	.	.	.	.	.	.	.	.	.	.	.	.	.	.
.	.	.	.	.	.	.	.	.	.	.	.	.	4G#/	.	4B/	.	16e/	.	.	.	.	.	.	.	.	.	.	.	.	.	.
.	.	.	.	.	.	.	.	.	.	.	.	.	.	.	.	.	16g#/JJ)	.	.	.	.	.	.	.	.	.	.	.	.	.	.
4r	.	8r	.	.	.	.	.	.	.	.	.	.	.	.	.	.	8b/L	.	.	.	.	.	.	.	.	.	.	.	.	.	.
.	.	8E\	.	.	.	.	.	.	.	.	.	.	8G#/	.	8B/	.	8d/J	.	.	.	.	.	.	.	.	.	.	.	.	.	.
*	*	*	*	*	*	*	*	*	*	*	*	*	*rep	*	*rep	*	*rep	*	*	*	*	*	*	*	*	*	*	*	*	*	*
2r	.	4EE/	.	.	.	.	4B\	-ve	.	16.dd\LL]	.	.	8G#/	.	8B/	.	16r	.	.	.	.	.	.	.	.	4b\	.	.	.	.	.
.	.	.	.	.	.	.	.	.	.	.	.	.	.	.	.	.	(<16d/LL	.	.	.	.	.	.	.	.	.	.	.	.	.	.
.	.	.	.	.	.	.	.	.	.	32ee\K	.	.	.	.	.	.	.	.	.	.	.	.	.	.	.	.	.	.	.	.	.
.	.	.	.	.	.	.	.	.	.	16.cc#\	.	.	4G#/	.	4B/	.	16e/	.	.	.	.	.	.	.	.	.	.	.	.	.	.
.	.	.	.	.	.	.	.	.	.	.	.	.	.	.	.	.	16g#/JJ)	.	.	.	.	.	.	.	.	.	.	.	.	.	.
.	.	.	.	.	.	.	.	.	.	32dd\JJk	.	.	.	.	.	.	.	.	.	.	.	.	.	.	.	.	.	.	.	.	.
.	.	8r	.	.	.	.	8.B\	Ma-	.	16.b\LL	.	.	.	.	.	.	8b/L	.	.	.	.	.	.	.	.	4r	.	.	.	.	.
.	.	.	.	.	.	.	.	.	.	32cc#\JJk	.	.	.	.	.	.	.	.	.	.	.	.	.	.	.	.	.	.	.	.	.
.	.	8E\	.	.	.	.	.	.	.	16.a\LL	.	.	8G#/	.	8B/	.	8d/J	.	.	.	.	.	.	.	.	.	.	.	.	.	.
.	.	.	.	.	.	.	16c#\	.	.	.	.	.	.	.	.	.	.	.	.	.	.	.	.	.	.	.	.	.	.	.	.
.	.	.	.	.	.	.	.	.	.	32b\JJk	.	.	.	.	.	.	.	.	.	.	.	.	.	.	.	.	.	.	.	.	.
*	*	*	*	*	*	*	*	*	*	*	*	*	*Xrep	*	*Xrep	*	*Xrep	*	*	*	*	*	*	*	*	*	*	*	*	*	*
=12	=12	=12	=12	=12	=12	=12	=12	=12	=12	=12	=12	=12	=12	=12	=12	=12	=12	=12	=12	=12	=12	=12	=12	=12	=12	=12	=12	=12	=12	=12	=12
.	.	.	.	.	.	.	.	.	.	8qa/	.	.	.	.	.	.	.	.	.	.	.	.	.	.	.	.	.	.	.	.	.
4E\	.	4EE/	.	1r	.	.	4.d\	.	.	8g#\	.	.	8G#/	.	8B/	.	16r	.	1ryy	1r	.	1r	.	1G# 1B	.	2dd\	.	1r	.	1r	.
.	.	.	.	.	.	.	.	.	.	.	.	.	.	.	.	.	(<16d/LL	.	.	.	.	.	.	.	.	.	.	.	.	.	.
.	.	.	.	.	.	.	.	.	.	8g#\	-ris	.	4G#/	.	4B/	.	16e/	.	.	.	.	.	.	.	.	.	.	.	.	.	.
.	.	.	.	.	.	.	.	.	.	.	.	.	.	.	.	.	16g#/JJ)	.	.	.	.	.	.	.	.	.	.	.	.	.	.
4r	.	8r	.	.	.	.	.	.	.	4r	.	.	.	.	.	.	8b/L	.	.	.	.	.	.	.	.	.	.	.	.	.	.
.	.	8E\	.	.	.	.	8c#\	.	.	.	.	.	8G#/	.	8B/	.	8d/J	.	.	.	.	.	.	.	.	.	.	.	.	.	.
*	*	*	*	*	*	*	*	*	*	*	*	*	*rep	*	*rep	*	*rep	*	*	*	*	*	*	*	*	*	*	*	*	*	*
2r	.	4GG#/	.	.	.	.	(16c#\LL	.	.	4r	.	.	8G#/	.	8B/	.	16r	.	.	.	.	.	.	.	.	(>16cc#\LL	.	.	.	.	.
.	.	.	.	.	.	.	16B\	.	.	.	.	.	.	.	.	.	(<16d/LL	.	.	.	.	.	.	.	.	16b\	.	.	.	.	.
.	.	.	.	.	.	.	16A#X\	.	.	.	.	.	4G#/	.	4B/	.	16e/	.	.	.	.	.	.	.	.	16a#X\	.	.	.	.	.
.	.	.	.	.	.	.	16B\JJ)	.	.	.	.	.	.	.	.	.	16g#/JJ)	.	.	.	.	.	.	.	.	16b\JJ)	.	.	.	.	.
.	.	8r	.	.	.	.	8e\	.	.	8ee\	a-	.	.	.	.	.	8b/L	.	.	.	.	.	.	.	.	8ee\L	.	.	.	.	.
.	.	8E\	.	.	.	.	8d\	-ris	.	8ee\	-ve	.	8G#/	.	8B/	.	8d/J	.	.	.	.	.	.	.	.	8dd\J	.	.	.	.	.
*	*	*	*	*	*	*	*	*	*	*	*	*	*Xrep	*	*Xrep	*	*Xrep	*	*	*	*	*	*	*	*	*	*	*	*	*	*
!!LO:PB:g=original
=13	=13	=13	=13	=13	=13	=13	=13	=13	=13	=13	=13	=13	=13	=13	=13	=13	=13	=13	=13	=13	=13	=13	=13	=13	=13	=13	=13	=13	=13	=13	=13
*	*	*	*	*	*	*	*2\right	*	*	*	*	*	*	*	*	*	*	*	*	*	*	*	*	*	*	*	*	*	*	*	*
!	!	!	!	!	!	!	!LO:TX:t=P:problem:all\right:global	!	!	!	!	!	!	!	!	!	!	!	!	!	!	!	!	!	!	!	!	!	!	!	!
4AA/	.	4AA/	.	1r	.	.	4B#X\	stel-	.	[>2aa\	Ma-	.	8A/	.	8c#/	.	16r	.	1r	1A 1e	.	1AA	.	1A 1c#	.	4b#X\	.	1r	.	1r	.
.	.	.	.	.	.	.	.	.	.	.	.	.	.	.	.	.	(<16c#/LL	.	.	.	.	.	.	.	.	.	.	.	.	.	.
.	.	.	.	.	.	.	.	.	.	.	.	.	4A/	.	4c#/	.	16e/	.	.	.	.	.	.	.	.	.	.	.	.	.	.
.	.	.	.	.	.	.	.	.	.	.	.	.	.	.	.	.	16a/JJ)	.	.	.	.	.	.	.	.	.	.	.	.	.	.
4r	.	8r	.	.	.	.	4c#\	-la	.	.	.	.	.	.	.	.	8cc#/L	.	.	.	.	.	.	.	.	4cc#\	.	.	.	.	.
.	.	8E\	.	.	.	.	.	.	.	.	.	.	8A/	.	8c#/	.	8e/J	.	.	.	.	.	.	.	.	.	.	.	.	.	.
*	*	*	*	*	*	*	*	*	*	*	*	*	*rep	*	*rep	*	*rep	*	*	*	*	*	*	*	*	*	*	*	*	*	*
2r	.	4AA/	.	.	.	.	4r	.	.	8aa\L]	.	.	8A/	.	8c#/	.	16r	.	.	.	.	.	.	.	.	2r	.	.	.	.	.
.	.	.	.	.	.	.	.	.	.	.	.	.	.	.	.	.	(<16c#/LL	.	.	.	.	.	.	.	.	.	.	.	.	.	.
.	.	.	.	.	.	.	.	.	.	16gg#\L	.	.	4A/	.	4c#/	.	16e/	.	.	.	.	.	.	.	.	.	.	.	.	.	.
.	.	.	.	.	.	.	.	.	.	16ff#\JJ	.	.	.	.	.	.	16a/JJ)	.	.	.	.	.	.	.	.	.	.	.	.	.	.
.	.	8r	.	.	.	.	8e\	a-	.	16ee\LL	.	.	.	.	.	.	8cc#/L	.	.	.	.	.	.	.	.	.	.	.	.	.	.
.	.	.	.	.	.	.	.	.	.	16dd\	.	.	.	.	.	.	.	.	.	.	.	.	.	.	.	.	.	.	.	.	.
.	.	8E\	.	.	.	.	8e\	-ve	.	16cc#\	.	.	8A/	.	8c#/	.	8e/J	.	.	.	.	.	.	.	.	.	.	.	.	.	.
.	.	.	.	.	.	.	.	.	.	16b\JJ	.	.	.	.	.	.	.	.	.	.	.	.	.	.	.	.	.	.	.	.	.
*	*	*	*	*	*	*	*	*	*	*	*	*	*Xrep	*	*Xrep	*	*Xrep	*	*	*	*	*	*	*	*	*	*	*	*	*	*
=14	=14	=14	=14	=14	=14	=14	=14	=14	=14	=14	=14	=14	=14	=14	=14	=14	=14	=14	=14	=14	=14	=14	=14	=14	=14	=14	=14	=14	=14	=14	=14
*	*	*	*	*	*	*	*	*	*	*	*	*	*	*	*	*	*	*	*	*	*	*	*	*	*	*^	*	*	*	*	*
4C#/	.	4C#/	.	1r	.	.	2e\	ma-	.	4a\	-ris	.	8A/	.	8e/	.	16r	.	1r	1r	.	1r	.	1C# 1E	.	2ee\	1A	.	1r	.	1r	.
.	.	.	.	.	.	.	.	.	.	.	.	.	.	.	.	.	(<16e/LL	.	.	.	.	.	.	.	.	.	.	.	.	.	.	.
.	.	.	.	.	.	.	.	.	.	.	.	.	4A/	.	4e/	.	16a/	.	.	.	.	.	.	.	.	.	.	.	.	.	.	.
.	.	.	.	.	.	.	.	.	.	.	.	.	.	.	.	.	16cc#/JJ)	.	.	.	.	.	.	.	.	.	.	.	.	.	.	.
4r	.	8r	.	.	.	.	.	.	.	4r	.	.	.	.	.	.	8ee/L	.	.	.	.	.	.	.	.	.	.	.	.	.	.	.
.	.	8A\	.	.	.	.	.	.	.	.	.	.	8A/	.	8e/	.	8a/J	.	.	.	.	.	.	.	.	.	.	.	.	.	.	.
*	*	*	*	*	*	*	*	*	*	*	*	*	*rep	*	*rep	*	*rep	*	*	*	*	*	*	*	*	*	*	*	*	*	*	*
4C#/	.	4C#/	.	.	.	.	(>16f#\LL	.	.	4r	.	.	8A/	.	8e/	.	16r	.	.	.	.	.	.	.	.	16ff#\LL	.	.	.	.	.	.
.	.	.	.	.	.	.	16e\	.	.	.	.	.	.	.	.	.	(<16e/LL	.	.	.	.	.	.	.	.	16ee\	.	.	.	.	.	.
.	.	.	.	.	.	.	16d\	.	.	.	.	.	4A/	.	4e/	.	16a/	.	.	.	.	.	.	.	.	16dd\	.	.	.	.	.	.
.	.	.	.	.	.	.	16c#\JJ	.	.	.	.	.	.	.	.	.	16cc#/JJ)	.	.	.	.	.	.	.	.	16cc#\JJ	.	.	.	.	.	.
4r	.	8r	.	.	.	.	16d\LL	.	.	8r	.	.	.	.	.	.	8ee/L	.	.	.	.	.	.	.	.	16dd\LL	.	.	.	.	.	.
.	.	.	.	.	.	.	16c#\	.	.	.	.	.	.	.	.	.	.	.	.	.	.	.	.	.	.	16cc#\	.	.	.	.	.	.
.	.	8A\	.	.	.	.	16B\	.	.	8a\	a-	.	8A/	.	8e/	.	8a/J	.	.	.	.	.	.	.	.	16b\	.	.	.	.	.	.
.	.	.	.	.	.	.	16A\JJ)	-ris	.	.	.	.	.	.	.	.	.	.	.	.	.	.	.	.	.	16a\JJ	.	.	.	.	.	.
*	*	*	*	*	*	*	*	*	*	*	*	*	*Xrep	*	*Xrep	*	*Xrep	*	*	*	*	*	*	*	*	*	*	*	*	*	*	*
=15	=15	=15	=15	=15	=15	=15	=15	=15	=15	=15	=15	=15	=15	=15	=15	=15	=15	=15	=15	=15	=15	=15	=15	=15	=15	=15	=15	=15	=15	=15	=15	=15
4D\	.	4D/	.	1r	.	.	8G#/	a-	.	4a\	-ve	.	4F#/	.	4A/	.	16r	.	1r	1r	.	1r	.	8D\ 8F#\	.	(<8g#/L	4r	.	4r	.	4r	.
.	.	.	.	.	.	.	.	.	.	.	.	.	.	.	.	.	16f#/LL	<	.	.	.	.	.	.	.	.	.	.	.	.	.	.
.	.	.	.	.	.	.	8F#/	-ve	.	.	.	.	.	.	.	.	16a/	.	.	.	.	.	.	8r	.	8f#/J)	.	.	.	.	.	.
.	.	.	.	.	.	.	.	.	.	.	.	.	.	.	.	.	(>16dd/JJ	.	.	.	.	.	.	.	.	.	.	.	.	.	.	.
4r	.	8r	.	.	.	.	2a\	ma-	.	2ff#\	Ma-	.	2D/	.	2a/	.	2ff#\	.	.	.	.	.	.	2.D\ 2.d\	.	2ff#\	2f#\	.	2aa\	.	(>2fff#\	<
.	.	8DD/	.	.	.	.	.	.	.	.	.	.	.	.	.	.	.	.	.	.	.	.	.	.	.	.	.	.	.	.	.	.
!	!	!	!LO:HP:a	!	!	!	!	!	!	!	!	!	!	!	!	!	!	!	!	!	!	!	!	!	!	!	!	!	!	!	!	!
2r	.	2D\	<[	.	.	.	.	.	.	.	.	.	.	.	.	.	.	.	.	.	.	.	.	.	.	.	.	.	.	.	.	.
!!mixed beam:problem
!	!	!	!	!	!	!	!	!	!	!	!	!	!LO:TX:t=P:problem:mixed beam	!	!	!	!	!	!	!	!	!	!	!	!	!	!	!	!	!	!	!
.	.	.	.	.	.	.	8g#\	.	.	8ee\	.	.	8d\L	.	8g#/L	.	8ee\L	[	.	.	.	.	.	.	.	8ee\L	8g#\L	.	8gg#\L	.	8eee\L	.
.	.	.	.	.	.	.	8f#\	-ris	.	8dd\	-ris	.	8D/J	.	8f#/J	.	8dd\J)	.	.	.	.	.	.	.	.	8dd\J	8f#\J	.	8ff#\J	.	8ddd\J)	[
*	*	*	*	*	*	*	*	*	*	*	*	*	*	*	*	*	*	*	*	*	*	*	*	*	*	*v	*v	*	*	*	*	*
=16	=16	=16	=16	=16	=16	=16	=16	=16	=16	=16	=16	=16	=16	=16	=16	=16	=16	=16	=16	=16	=16	=16	=16	=16	=16	=16	=16	=16	=16	=16	=16
!	!LO:DY:rj:a	!	!LO:DY:rj	!	!	!	!	!	!	!	!	!LO:DY:rj	!	!	!	!LO:DY:rj	!	!LO:DY:rj	!	!	!	!	!	!	!	!	!	!	!	!	!
4E\	f	2E\	f	1r	.	.	8f#\L	ma-	.	8dd\L	ma-	f	2E/	.	8f#/	f	8dd\	f	1r	1r	.	1r	.	4E\ 4e\	.	8f#\L 8dd\	.	8ff#\L	.	8ddd\L	f
.	.	.	.	.	.	.	[>8e\J	.	.	[>8cc#\J	.	.	.	.	4e/	.	4cc#\	.	.	.	.	.	.	.	.	8e\J 8cc#\	.	8ee\J	.	8ccc#\J	.
4r	.	.	.	.	.	.	16e\LL]	.	.	16cc#\LL]	.	.	.	.	.	.	.	.	.	.	.	.	.	4r	.	16r	.	16r	.	16r	.
.	.	.	.	.	.	.	16c#\	.	.	16a\	.	.	.	.	.	.	.	.	.	.	.	.	.	.	.	(>16c#\LL 16a\	.	(>16cc#\LL	.	(>16aa\LL	.
.	.	.	.	.	.	.	16B\	.	.	16g#\	.	.	.	.	16G#/LL	.	16B/LL	.	.	.	.	.	.	.	.	16B\ 16g#\	.	16b\	.	16gg#\	.
.	.	.	.	.	.	.	16c#\JJ	.	.	16a\JJ	.	.	.	.	16A/JJ	.	16c#/JJ	.	.	.	.	.	.	.	.	16c#\JJ) 16a\	.	16cc#\JJ)	.	16aa\JJ)	.
4EE/	.	2EE/	.	.	.	.	[>4e\	.	.	[>4cc#\	.	.	4.E/	.	4.G#/	.	4.e/	.	.	.	.	.	.	2r	.	[<4e\ [>4cc#\	.	[>4ee\	.	[>4ccc#\	.
4r	.	.	.	.	.	.	16e\LL]	.	.	16cc#\LL]	.	.	.	.	.	.	.	.	.	.	.	.	.	.	.	16e\LL] 16cc#\]	.	16ee\LL]	.	16ccc#\LL]	.
.	.	.	.	.	.	.	16d\	.	.	16b\	.	.	.	.	.	.	.	.	.	.	.	.	.	.	.	(>16d\ 16b\	.	(>16dd\	.	(>16bb\	.
.	.	.	.	.	.	.	16B\	.	.	16g#\	.	.	8G#/	.	8G#/	.	8e/	.	.	.	.	.	.	.	.	16B\ 16g#\	.	16b\	.	16gg#\	.
.	.	.	.	.	.	.	16G#\JJ	-ris	.	16e\JJ	-ris	.	.	.	.	.	.	.	.	.	.	.	.	.	.	16G#\JJ) 16e\	.	16g#\JJ)	.	16ee\JJ)	.
=17	=17	=17	=17	=17	=17	=17	=17	=17	=17	=17	=17	=17	=17	=17	=17	=17	=17	=17	=17	=17	=17	=17	=17	=17	=17	=17	=17	=17	=17	=17	=17
*	*	*	*	*	*	*	*	*	*	*	*	*	*	*	*	*	*	*	*	*	*	*	*	*	*	*^	*	*	*	*	*
4r	.	2E\	.	2r	.	.	2B\	stel-	.	2e/	stel-	.	2G#/	.	2B/	.	2d/	.	1r	1r	.	2.e\	.	2E\	.	2g#/	2e\	.	2b/	.	2ee\	.
4E\	.	.	.	.	.	.	.	.	.	.	.	.	.	.	.	.	.	.	.	.	.	.	.	.	.	.	.	.	.	.	.	.
4AA/	.	4AA/	.	4r	.	.	4A\	-la	.	4a\	-la	.	4A/	.	4A/	.	4c#/	.	.	.	.	.	.	4AA/	.	4a/	4d\	.	4a/	.	4aa\	.
*	*	*	*	*2\right	*	*	*	*	*	*	*	*	*	*	*	*	*	*	*	*	*	*	*	*	*	*	*	*	*	*	*	*
!	!	!	!	!LO:TX:t=P:problem:all\right:global	!	!	!	!	!	!	!	!	!	!	!	!	!	!	!	!	!	!	!	!	!	!	!	!	!	!	!	!
4r	.	4r	.	8.A\	a-	.	4r	.	.	4r	.	.	4r	.	4r	.	4r	.	.	.	.	4r	.	4r	.	4r	4r	.	4r	.	4r	.
.	.	.	.	16A\	-ve	.	.	.	.	.	.	.	.	.	.	.	.	.	.	.	.	.	.	.	.	.	.	.	.	.	.	.
*	*	*	*	*	*	*	*	*	*	*	*	*	*	*	*	*	*	*	*	*	*	*	*	*	*	*v	*v	*	*	*	*	*
=18	=18	=18	=18	=18	=18	=18	=18	=18	=18	=18	=18	=18	=18	=18	=18	=18	=18	=18	=18	=18	=18	=18	=18	=18	=18	=18	=18	=18	=18	=18	=18
4FF#/	.	4F#\	.	4.A\	ma-	.	1r	.	.	1r	.	.	1F#	.	1A	.	16r	.	1r	1r	.	1r	.	1r	.	1f# 1a	.	1r	.	1r	.
.	.	.	.	.	.	.	.	.	.	.	.	.	.	.	.	.	(>16a\LL	.	.	.	.	.	.	.	.	.	.	.	.	.	.
.	.	.	.	.	.	.	.	.	.	.	.	.	.	.	.	.	16cc#\	.	.	.	.	.	.	.	.	.	.	.	.	.	.
.	.	.	.	.	.	.	.	.	.	.	.	.	.	.	.	.	16ff#\JJ	.	.	.	.	.	.	.	.	.	.	.	.	.	.
!!mixed beam:problem
!	!	!	!	!	!	!	!	!	!	!	!	!	!	!	!	!	!LO:TX:t=P:problem:mixed beam	!	!	!	!	!	!	!	!	!	!	!	!	!	!
4r	.	8r	.	.	.	.	.	.	.	.	.	.	.	.	.	.	8aa\L	.	.	.	.	.	.	.	.	.	.	.	.	.	.
.	.	8C#/	.	8A\	.	.	.	.	.	.	.	.	.	.	.	.	8a/J)	.	.	.	.	.	.	.	.	.	.	.	.	.	.
*	*	*	*	*	*	*	*	*	*	*	*	*	*	*	*	*	*rep	*	*	*	*	*	*	*	*	*	*	*	*	*	*
4F#\	.	4F#\	.	16G#\LL	.	.	.	.	.	.	.	.	.	.	.	.	16r	.	.	.	.	.	.	.	.	.	.	.	.	.	.
.	.	.	.	16F#\	.	.	.	.	.	.	.	.	.	.	.	.	(>16a\LL	.	.	.	.	.	.	.	.	.	.	.	.	.	.
.	.	.	.	16E#X\	.	.	.	.	.	.	.	.	.	.	.	.	16cc#\	.	.	.	.	.	.	.	.	.	.	.	.	.	.
.	.	.	.	16F#\JJ	.	.	.	.	.	.	.	.	.	.	.	.	16ff#\JJ	.	.	.	.	.	.	.	.	.	.	.	.	.	.
4r	.	8r	.	8d\	.	.	.	.	.	.	.	.	.	.	.	.	8aa\L	.	.	.	.	.	.	.	.	.	.	.	.	.	.
.	.	8C#/	.	8c#\	-ris	<[	.	.	.	.	.	.	.	.	.	.	8a/J)	.	.	.	.	.	.	.	.	.	.	.	.	.	.
*	*	*	*	*	*	*	*	*	*	*	*	*	*	*	*	*	*Xrep	*	*	*	*	*	*	*	*	*	*	*	*	*	*
=19	=19	=19	=19	=19	=19	=19	=19	=19	=19	=19	=19	=19	=19	=19	=19	=19	=19	=19	=19	=19	=19	=19	=19	=19	=19	=19	=19	=19	=19	=19	=19
4C#/	.	4E#X\	.	2c#\	stel-	>	1r	.	.	1r	.	.	1E#X	.	1G#	.	16r	.	1r	1r	.	1r	.	4r	.	1e#X 1g#	.	1cc#	.	4r	<
.	.	.	.	.	.	.	.	.	.	.	.	.	.	.	.	.	(>16g#\LL	.	.	.	.	.	.	.	.	.	.	.	.	.	.
.	.	.	.	.	.	.	.	.	.	.	.	.	.	.	.	.	16cc#\	.	.	.	.	.	.	.	.	.	.	.	.	.	.
!	!	!	!	!	!	!	!	!	!	!	!	!	!	!	!	!	!LO:SIC:v:s:t=16ee#	!	!	!	!	!	!	!	!	!	!	!	!	!	!
.	.	.	.	.	.	.	.	.	.	.	.	.	.	.	.	.	16ee\JJ	.	.	.	.	.	.	.	.	.	.	.	.	.	.
!!mixed beam:problem
!	!	!	!	!	!	!	!	!	!	!	!	!	!	!	!	!	!LO:TX:t=P:problem:mixed beam	!	!	!	!	!	!	!	!	!	!	!	!	!	!
4r	.	8r	.	.	.	.	.	.	.	.	.	.	.	.	.	.	8gg#\L	.	.	.	.	.	.	2C#/	.	.	.	.	.	2ee#X\ 2gg#\	[ >
.	.	8C#/	.	.	.	.	.	.	.	.	.	.	.	.	.	.	8g#/J)	.	.	.	.	.	.	.	.	.	.	.	.	.	.
*	*	*	*	*	*	*	*	*	*	*	*	*	*	*	*	*	*rep	*	*	*	*	*	*	*	*	*	*	*	*	*	*
4C#/	.	4E#\	.	4G#\	-la	]	.	.	.	.	.	.	.	.	.	.	16r	.	.	.	.	.	.	.	.	.	.	.	.	.	.
.	.	.	.	.	.	.	.	.	.	.	.	.	.	.	.	.	(>16g#\LL	.	.	.	.	.	.	.	.	.	.	.	.	.	.
.	.	.	.	.	.	.	.	.	.	.	.	.	.	.	.	.	16cc#\	.	.	.	.	.	.	.	.	.	.	.	.	.	.
!	!	!	!	!	!	!	!	!	!	!	!	!	!	!	!	!	!LO:SIC:v:s:t=16ee#	!	!	!	!	!	!	!	!	!	!	!	!	!	!
.	.	.	.	.	.	.	.	.	.	.	.	.	.	.	.	.	16ee\JJ	.	.	.	.	.	.	.	.	.	.	.	.	.	.
4r	.	8r	.	8.B\	a-	.	.	.	.	.	.	.	.	.	.	.	8gg#\L	.	.	.	.	.	.	4r	.	.	.	.	.	4r	]
.	.	8D\	.	.	.	.	.	.	.	.	.	.	.	.	.	.	8g#/J)	.	.	.	.	.	.	.	.	.	.	.	.	.	.
.	.	.	.	16B\	-ve	.	.	.	.	.	.	.	.	.	.	.	.	.	.	.	.	.	.	.	.	.	.	.	.	.	.
*	*	*	*	*	*	*	*	*	*	*	*	*	*	*	*	*	*Xrep	*	*	*	*	*	*	*	*	*	*	*	*	*	*
!!LO:PB:g=original
=20	=20	=20	=20	=20	=20	=20	=20	=20	=20	=20	=20	=20	=20	=20	=20	=20	=20	=20	=20	=20	=20	=20	=20	=20	=20	=20	=20	=20	=20	=20	=20
*	*	*	*	*	*	*	*	*	*	*	*	*	*rep	*	*rep	*	*	*	*	*	*	*	*	*	*	*	*	*	*	*	*
4C#/	.	4C#/	.	(>2B\	ma-	.	1r	.	.	1r	.	.	1E#X	.	1G#	.	16r	.	1r	1r	.	1r	.	1r	.	1g# 1b	.	1r	.	1r	.
.	.	.	.	.	.	.	.	.	.	.	.	.	.	.	.	.	(>16b\LL	.	.	.	.	.	.	.	.	.	.	.	.	.	.
.	.	.	.	.	.	.	.	.	.	.	.	.	.	.	.	.	16cc#\	.	.	.	.	.	.	.	.	.	.	.	.	.	.
.	.	.	.	.	.	.	.	.	.	.	.	.	.	.	.	.	16gg#\JJ	.	.	.	.	.	.	.	.	.	.	.	.	.	.
4r	.	8r	.	.	.	.	.	.	.	.	.	.	.	.	.	.	8bb\L	.	.	.	.	.	.	.	.	.	.	.	.	.	.
.	.	8E#X\	.	.	.	.	.	.	.	.	.	.	.	.	.	.	8cc#\J)	.	.	.	.	.	.	.	.	.	.	.	.	.	.
*	*	*	*	*	*	*	*	*	*	*	*	*	*	*	*	*	*rep	*	*	*	*	*	*	*	*	*	*	*	*	*	*
4C#/	.	4C#/	.	16B\LL	.	.	.	.	.	.	.	.	.	.	.	.	16r	.	.	.	.	.	.	.	.	.	.	.	.	.	.
.	.	.	.	16G#\	.	.	.	.	.	.	.	.	.	.	.	.	(>16b\LL	.	.	.	.	.	.	.	.	.	.	.	.	.	.
.	.	.	.	16F##X\	.	.	.	.	.	.	.	.	.	.	.	.	16cc#\	.	.	.	.	.	.	.	.	.	.	.	.	.	.
.	.	.	.	16G#\JJ)	.	.	.	.	.	.	.	.	.	.	.	.	16gg#\JJ	.	.	.	.	.	.	.	.	.	.	.	.	.	.
4r	.	8r	.	8d\L	.	.	.	.	.	.	.	.	.	.	.	.	8bb\L	.	.	.	.	.	.	.	.	.	.	.	.	.	.
.	.	8E#X\	.	8c#\J	.	.	.	.	.	.	.	.	.	.	.	.	8cc#\J)	.	.	.	.	.	.	.	.	.	.	.	.	.	.
*	*	*	*	*	*	*	*	*	*	*	*	*	*Xrep	*	*Xrep	*	*Xrep	*	*	*	*	*	*	*	*	*	*	*	*	*	*
=21	=21	=21	=21	=21	=21	=21	=21	=21	=21	=21	=21	=21	=21	=21	=21	=21	=21	=21	=21	=21	=21	=21	=21	=21	=21	=21	=21	=21	=21	=21	=21
.	.	.	.	4qqB/	.	.	.	.	.	.	.	.	.	.	.	.	.	.	.	.	.	.	.	.	.	.	.	.	.	.	.
4FF#/	.	4C#/	.	2A\	-ris	.	1r	.	.	1r	.	.	1F#	.	1A	.	16r	.	1r	1r	.	1r	.	4r	.	1f# 1a	.	1dd	.	4r	.
.	.	.	.	.	.	.	.	.	.	.	.	.	.	.	.	.	(>16a\LL	.	.	.	.	.	.	.	.	.	.	.	.	.	.
.	.	.	.	.	.	.	.	.	.	.	.	.	.	.	.	.	16cc#\	.	.	.	.	.	.	.	.	.	.	.	.	.	.
.	.	.	.	.	.	.	.	.	.	.	.	.	.	.	.	.	16ff#\JJ	.	.	.	.	.	.	.	.	.	.	.	.	.	.
!!mixed beam:problem
!	!	!	!	!	!	!	!	!	!	!	!	!	!	!	!	!	!LO:TX:t=P:problem:mixed beam	!	!	!	!	!	!	!	!	!	!	!	!	!	!
4r	.	8r	.	.	.	.	.	.	.	.	.	.	.	.	.	.	8aa\L	.	.	.	.	.	.	2FF#/ 2F#/	.	.	.	.	.	2ff#\ 2aa\	.
.	.	8C#/	.	.	.	.	.	.	.	.	.	.	.	.	.	.	8a/J)	.	.	.	.	.	.	.	.	.	.	.	.	.	.
*	*	*	*	*	*	*	*	*	*	*	*	*	*	*	*	*	*rep	*	*	*	*	*	*	*	*	*	*	*	*	*	*
4F#\	.	4F#\	.	4r	.	.	.	.	.	.	.	.	.	.	.	.	16r	.	.	.	.	.	.	.	.	.	.	.	.	.	.
.	.	.	.	.	.	.	.	.	.	.	.	.	.	.	.	.	(>16a\LL	.	.	.	.	.	.	.	.	.	.	.	.	.	.
.	.	.	.	.	.	.	.	.	.	.	.	.	.	.	.	.	16cc#\	.	.	.	.	.	.	.	.	.	.	.	.	.	.
.	.	.	.	.	.	.	.	.	.	.	.	.	.	.	.	.	16ff#\JJ	.	.	.	.	.	.	.	.	.	.	.	.	.	.
4r	.	8r	.	8A\	De-	.	.	.	.	.	.	.	.	.	.	.	8aa\L	.	.	.	.	.	.	4r	.	.	.	.	.	4r	.
.	.	8F#\	.	8F#\	-i	.	.	.	.	.	.	.	.	.	.	.	8a/J)	.	.	.	.	.	.	.	.	.	.	.	.	.	.
*	*	*	*	*	*	*	*	*	*	*	*	*	*	*	*	*	*Xrep	*	*	*	*	*	*	*	*	*	*	*	*	*	*
=22	=22	=22	=22	=22	=22	=22	=22	=22	=22	=22	=22	=22	=22	=22	=22	=22	=22	=22	=22	=22	=22	=22	=22	=22	=22	=22	=22	=22	=22	=22	=22
*	*	*	*	*	*	*	*	*	*	*	*	*	*	*	*	*	*	*	*	*	*	*	*	*	*	*^	*	*	*	*	*
4BB/	.	4BB/	.	[>2d#X\	Ma-	.	1r	.	.	1r	.	.	2F#/	.	4A/	.	16r	.	1r	1r	.	1r	.	2B\	.	2a/	1f#	.	2r	.	1r	.
.	.	.	.	.	.	.	.	.	.	.	.	.	.	.	.	.	(>16f#/LL	.	.	.	.	.	.	.	.	.	.	.	.	.	.	.
.	.	.	.	.	.	.	.	.	.	.	.	.	.	.	.	.	16a/	.	.	.	.	.	.	.	.	.	.	.	.	.	.	.
.	.	.	.	.	.	.	.	.	.	.	.	.	.	.	.	.	16dd#X/JJ	.	.	.	.	.	.	.	.	.	.	.	.	.	.	.
4r	.	8r	.	.	.	.	.	.	.	.	.	.	.	.	2B/	.	8ff#\L	.	.	.	.	.	.	.	.	.	.	.	.	.	.	.
.	.	8F#\	.	.	.	.	.	.	.	.	.	.	.	.	.	.	8b\J)	.	.	.	.	.	.	.	.	.	.	.	.	.	.	.
*	*	*	*	*	*	*	*	*	*	*	*	*	*	*	*	*	*rep	*	*	*	*	*	*	*	*	*	*	*	*	*	*	*
4AA/	.	4AA/	.	8d#\]	.	.	.	.	.	.	.	.	2F#/	.	.	.	16r	.	.	.	.	.	.	2A\	.	2b/	.	.	2dd#X\	.	.	.
.	.	.	.	.	.	.	.	.	.	.	.	.	.	.	.	.	(>16f#/LL	.	.	.	.	.	.	.	.	.	.	.	.	.	.	.
.	.	.	.	8d#\	-ter	.	.	.	.	.	.	.	.	.	.	.	16a/	.	.	.	.	.	.	.	.	.	.	.	.	.	.	.
.	.	.	.	.	.	.	.	.	.	.	.	.	.	.	.	.	16dd#/JJ	.	.	.	.	.	.	.	.	.	.	.	.	.	.	.
4r	.	8r	.	8c#\	De-	.	.	.	.	.	.	.	.	.	4B/	.	8ff#\L	.	.	.	.	.	.	.	.	.	.	.	.	.	.	.
.	.	8F#\	.	8B\	-i	.	.	.	.	.	.	.	.	.	.	.	8b\J)	.	.	.	.	.	.	.	.	.	.	.	.	.	.	.
*	*	*	*	*	*	*	*	*	*	*	*	*	*	*	*	*	*Xrep	*	*	*	*	*	*	*	*	*	*	*	*	*	*	*
=23	=23	=23	=23	=23	=23	=23	=23	=23	=23	=23	=23	=23	=23	=23	=23	=23	=23	=23	=23	=23	=23	=23	=23	=23	=23	=23	=23	=23	=23	=23	=23	=23
4GG#/	.	4GG#/	.	8B\L	Ma-	.	1r	.	.	1r	.	.	4G#/	.	2B/	.	16r	.	1r	1r	.	1r	.	2G#\	.	2b/	2g#\	<	(>2.ee\	.	4r	<
.	.	.	.	.	.	.	.	.	.	.	.	.	.	.	.	.	16e/LL	.	.	.	.	.	.	.	.	.	.	.	.	.	.	.
.	.	.	.	(>8e\J	.	.	.	.	.	.	.	.	.	.	.	.	(>16g#/	<	.	.	.	.	.	.	.	.	.	.	.	.	.	.
.	.	.	.	.	.	.	.	.	.	.	.	.	.	.	.	.	16b/JJ	.	.	.	.	.	.	.	.	.	.	.	.	.	.	.
!	!	!	!	!	!	!LO:HP:b	!	!	!	!	!	!	!	!	!	!	!	!	!	!	!	!	!	!	!	!	!	!	!	!	!	!
8r	.	8r	.	2e\	.	<	.	.	.	.	.	.	2e\	.	.	.	2ee\	.	.	.	.	.	.	.	.	.	.	.	.	.	2eee\	.
8GG#/	.	8D\	.	.	.	.	.	.	.	.	.	.	.	.	.	.	.	.	.	.	.	.	.	.	.	.	.	.	.	.	.	.
2AA/	.	2AA/	.	.	.	.	.	.	.	.	.	.	.	.	4c#/	.	.	.	.	.	.	.	.	4A\	.	4b/	2e\	.	.	.	.	.
.	.	.	.	8d#X\L)	.	.	.	.	.	.	.	.	8d#X\L	.	8B/L	.	8dd#X\L)	.	.	.	.	.	.	4AA/	.	8b/L	.	.	8dd#X\L	.	(>8ddd#X\L	[
.	.	.	.	8c#\J	-ter	[	.	.	.	.	.	.	8B\J	.	8A/J	.	8cc#\J	[	.	.	.	.	.	.	.	8a/J	.	[	8cc#\J)	.	8ccc#\J)	.
=24	=24	=24	=24	=24	=24	=24	=24	=24	=24	=24	=24	=24	=24	=24	=24	=24	=24	=24	=24	=24	=24	=24	=24	=24	=24	=24	=24	=24	=24	=24	=24	=24
1BB	.	1BB	.	[>4c#\	ma-	.	1r	.	.	1r	.	.	4c#/	.	2G#/	.	(>4cc#\	.	1r	1r	.	1r	.	2BB/	.	2g#/	2e\	.	(>4cc#\	.	(>4ccc#\	.
.	.	.	.	16c#\LL]	.	.	.	.	.	.	.	.	8B/	.	.	.	8b\)	.	.	.	.	.	.	.	.	.	.	.	8b\)	.	8bb\)	.
.	.	.	.	(>16B\	.	.	.	.	.	.	.	.	.	.	.	.	.	.	.	.	.	.	.	.	.	.	.	.	.	.	.	.
.	.	.	.	16F#\	.	.	.	.	.	.	.	.	16r	.	.	.	16r	.	.	.	.	.	.	.	.	.	.	.	8r	.	8r	.
.	.	.	.	16G#\JJ)	.	.	.	.	.	.	.	.	16G#/	.	.	.	16g#/	.	.	.	.	.	.	.	.	.	.	.	.	.	.	.
.	.	.	.	[>4B\	.	.	.	.	.	.	.	.	2F#/	.	2A/	.	[<4b/	.	.	.	.	.	.	2r	.	2a/	2d\	.	4r	.	4r	.
.	.	.	.	16B\LL]	.	.	.	.	.	.	.	.	.	.	.	.	(<16b/LL]	.	.	.	.	.	.	.	.	.	.	.	8r	.	8r	.
.	.	.	.	(>16A\	.	.	.	.	.	.	.	.	.	.	.	.	16a/	.	.	.	.	.	.	.	.	.	.	.	.	.	.	.
.	.	.	.	16F#\	.	.	.	.	.	.	.	.	.	.	.	.	16g#X/	.	.	.	.	.	.	.	.	.	.	.	8b\	.	8dd#X\	.
.	.	.	.	16D#X\JJ)	-ter	.	.	.	.	.	.	.	.	.	.	.	16d#X/JJ)	.	.	.	.	.	.	.	.	.	.	.	.	.	.	.
=25	=25	=25	=25	=25	=25	=25	=25	=25	=25	=25	=25	=25	=25	=25	=25	=25	=25	=25	=25	=25	=25	=25	=25	=25	=25	=25	=25	=25	=25	=25	=25	=25
2BB/	.	2AA/	.	(>2F#\	al-	.	1r	.	.	2r	.	.	2d#X\	.	2A/	.	2f#/	.	1r	1r	.	1r	.	2BB/	.	2a/	2d#X\	.	2b\	.	2ff#\	.
4EE/	.	4E\	.	4E\)	-ma	.	.	.	.	4r	.	.	4e\	.	4G#/	.	4e/	.	.	.	.	.	.	4BB/	.	4g#/	4e\	.	4b\	.	4ee\	.
4r	.	4r	.	4r	.	.	.	.	.	8.e/	De-	.	4r	.	4r	.	4ryy	.	.	.	.	.	.	4r	.	4r	4r	.	4r	.	4r	.
.	.	.	.	.	.	.	.	.	.	16e/	-i	.	.	.	.	.	.	.	.	.	.	.	.	.	.	.	.	.	.	.	.	.
*	*	*	*	*	*	*	*	*	*	*	*	*	*	*	*	*	*	*	*	*	*	*	*	*	*	*v	*v	*	*	*	*	*
=26	=26	=26	=26	=26	=26	=26	=26	=26	=26	=26	=26	=26	=26	=26	=26	=26	=26	=26	=26	=26	=26	=26	=26	=26	=26	=26	=26	=26	=26	=26	=26
*	*	*	*	*	*	*	*	*	*	*	*	*	*	*	*	*	*	*	*	*	*	*^	*	*	*	*	*	*	*	*	*
4E\	.	4E\	.	2r	.	.	2r	.	.	(>4.ddn\	ma-	.	1G#	.	1B	.	16r	.	1r	1r	.	1e	1e	.	2r	.	1r	.	1r	.	1r	.
.	.	.	.	.	.	.	.	.	.	.	.	.	.	.	.	.	(<16dn/LL	.	.	.	.	.	.	.	.	.	.	.	.	.	.	.
.	.	.	.	.	.	.	.	.	.	.	.	.	.	.	.	.	16e/	.	.	.	.	.	.	.	.	.	.	.	.	.	.	.
.	.	.	.	.	.	.	.	.	.	.	.	.	.	.	.	.	16g#/JJ	.	.	.	.	.	.	.	.	.	.	.	.	.	.	.
4r	.	8r	.	.	.	.	.	.	.	.	.	.	.	.	.	.	8b/L	.	.	.	.	.	.	.	.	.	.	.	.	.	.	.
.	.	8B\	.	.	.	.	.	.	.	8cc#\	.	.	.	.	.	.	8d/J)	.	.	.	.	.	.	.	.	.	.	.	.	.	.	.
*	*	*	*	*	*	*	*	*	*	*	*	*	*	*	*	*	*rep	*	*	*	*	*	*	*	*	*	*	*	*	*	*	*
4E\	.	4E\	.	4r	.	.	4r	.	.	16cc#\LL	.	.	.	.	.	.	16r	.	.	.	.	.	.	.	4r	.	.	.	.	.	.	.
.	.	.	.	.	.	.	.	.	.	16b\	.	.	.	.	.	.	(<16dn/LL	.	.	.	.	.	.	.	.	.	.	.	.	.	.	.
.	.	.	.	.	.	.	.	.	.	16a#X\	.	.	.	.	.	.	16e/	.	.	.	.	.	.	.	.	.	.	.	.	.	.	.
.	.	.	.	.	.	.	.	.	.	16b\JJ)	.	.	.	.	.	.	16g#/JJ	.	.	.	.	.	.	.	.	.	.	.	.	.	.	.
4r	.	8r	.	8.G#\	De-	.	8.d\	De-	.	8ff#\	.	.	.	.	.	.	8b/L	.	.	.	.	.	.	.	4G#\ 4B	.	.	.	.	.	.	.
.	.	8B\	.	.	.	.	.	.	.	8ee\	-ter	.	.	.	.	.	8d/J)	.	.	.	.	.	.	.	.	.	.	.	.	.	.	.
.	.	.	.	16G#\	-i	.	16d\	-i	.	.	.	.	.	.	.	.	.	.	.	.	.	.	.	.	.	.	.	.	.	.	.	.
*	*	*	*	*	*	*	*	*	*	*	*	*	*	*	*	*	*Xrep	*	*	*	*	*	*	*	*	*	*	*	*	*	*	*
*	*	*	*	*	*	*	*	*	*	*	*	*	*	*	*	*	*	*	*	*	*	*v	*v	*	*	*	*	*	*	*	*	*
!!LO:PB:g=original
=27	=27	=27	=27	=27	=27	=27	=27	=27	=27	=27	=27	=27	=27	=27	=27	=27	=27	=27	=27	=27	=27	=27	=27	=27	=27	=27	=27	=27	=27	=27	=27
*	*	*	*	*	*	*	*	*	*	*	*	*	*	*	*	*	*	*	*	*	*	*	*	*^	*	*	*	*	*	*	*
4EE/	.	4E\	.	2B\	Ma-	.	2d\	ma-	.	4ee\	al-	.	2B/	.	2d/	.	16r	.	1r	1E 1e	.	1r	.	2dn/	2B\	.	1r	.	1r	.	2r	.
.	.	.	.	.	.	.	.	.	.	.	.	.	.	.	.	.	16dn/LL	.	.	.	.	.	.	.	.	.	.	.	.	.	.	.
.	.	.	.	.	.	.	.	.	.	.	.	.	.	.	.	.	16e/	.	.	.	.	.	.	.	.	.	.	.	.	.	.	.
.	.	.	.	.	.	.	.	.	.	.	.	.	.	.	.	.	16g#/JJ	.	.	.	.	.	.	.	.	.	.	.	.	.	.	.
4r	.	8r	.	.	.	.	.	.	.	4g#\	-ma	.	.	.	.	.	8b/L	.	.	.	.	.	.	.	.	.	.	.	.	.	.	.
.	.	8BB/	.	.	.	.	.	.	.	.	.	.	.	.	.	.	8d/J	.	.	.	.	.	.	.	.	.	.	.	.	.	.	.
*	*	*	*	*	*	*	*	*	*	*	*	*	*	*	*	*	*rep	*	*	*	*	*	*	*	*	*	*	*	*	*	*	*
4EE/	.	4EE/	.	16c#\LL	.	.	16e\LL	.	.	4r	.	.	16c#/LL	.	16e/LL	.	16r	.	.	.	.	.	.	16e\LL	16c#\LL	.	.	.	.	.	4r	.
.	.	.	.	16B\	.	.	16d\	.	.	.	.	.	16B/	.	16d/	.	16dn/LL	.	.	.	.	.	.	16d\	16B\	.	.	.	.	.	.	.
.	.	.	.	16A#X\	.	.	16c#\	.	.	.	.	.	16A#X/	.	16c#/	.	16e/	.	.	.	.	.	.	16c#\	16A\	.	.	.	.	.	.	.
.	.	.	.	16B\JJ	.	.	16d\JJ	.	.	.	.	.	16B/JJ	.	16d/JJ	.	16g#/JJ	.	.	.	.	.	.	16d\JJ	16B\JJ	.	.	.	.	.	.	.
4r	.	8r	.	8c#\	.	.	8e\	.	.	8.b\	at-	.	8c#\L	.	8e/L	.	8b/L	.	.	.	.	.	.	8e\L	8c#\L	.	.	.	.	.	4bb\	.
.	.	8BB/	.	8d\	-ter	.	8f#\	-ter	.	.	.	.	8d\J	.	8f#/J	.	8d/J	.	.	.	.	.	.	8f#\J	8d\J	.	.	.	.	.	.	.
.	.	.	.	.	.	.	.	.	.	16b\	-que	.	.	.	.	.	.	.	.	.	.	.	.	.	.	.	.	.	.	.	.	.
*	*	*	*	*	*	*	*	*	*	*	*	*	*	*	*	*	*Xrep	*	*	*	*	*	*	*	*	*	*	*	*	*	*	*
*	*	*	*	*	*	*	*	*	*	*	*	*	*	*	*	*	*	*	*	*	*	*	*	*v	*v	*	*	*	*	*	*	*
=28	=28	=28	=28	=28	=28	=28	=28	=28	=28	=28	=28	=28	=28	=28	=28	=28	=28	=28	=28	=28	=28	=28	=28	=28	=28	=28	=28	=28	=28	=28	=28
*	*	*	*	*	*	*	*	*	*	*	*	*	*	*	*	*	*	*	*	*	*	*^	*	*	*	*	*	*	*	*	*
!!mixed beam:problem
!	!	!	!	!	!	!	!	!	!	!	!	!	!LO:TX:t=P:problem:mixedbeam	!	!	!	!	!	!	!	!	!	!	!	!	!	!	!	!	!	!	!
*	*	*	*	*	*	*	*	*	*	*	*	*	*	*	*	*	*rep	*	*	*	*	*	*	*	*	*	*	*	*	*	*	*
4E\	.	4EE/	.	8d\L	al-	.	8f#\L	al-	.	4.ddn\	sem-	.	8d\L	.	8f#/L	.	16r	.	1r	1r	.	1e	1e	.	8d\L 8f#	.	1r	.	1g# 1b	.	2ddd\	.
.	.	.	.	.	.	.	.	.	.	.	.	.	.	.	.	.	16dn/LL	.	.	.	.	.	.	.	.	.	.	.	.	.	.	.
.	.	.	.	8G#\J	.	.	8B\J	.	.	.	.	.	8G#/J	.	8B/J	.	16e/	.	.	.	.	.	.	.	8G#\J	.	.	.	.	.	.	.
.	.	.	.	.	.	.	.	.	.	.	.	.	.	.	.	.	16g#/JJ	.	.	.	.	.	.	.	.	.	.	.	.	.	.	.
*	*	*	*	*	*	*	*	*	*	*	*	*	*tremolo	*	*tremolo	*	*	*	*	*	*	*	*	*	*	*	*	*	*	*	*	*
4r	.	8r	.	4G#\	-ma	.	4B\	-ma	.	.	.	.	8G#/L	.	8B/L	.	8b/L	.	.	.	.	.	.	.	4G#\	.	.	.	.	.	.	.
.	.	8B\	.	.	.	.	.	.	.	8cc#\	-per	.	8G#/	.	8B/	.	8d/J	.	.	.	.	.	.	.	.	.	.	.	.	.	.	.
4E\	.	4E\	.	4r	.	.	4r	.	.	(>16ccn\LL	sem-	.	8G#/	.	8B/	.	16r	.	.	.	.	.	.	.	2r	.	.	.	.	.	16cccn\LL	.
.	.	.	.	.	.	.	.	.	.	16b\	.	.	.	.	.	.	16dn/LL	.	.	.	.	.	.	.	.	.	.	.	.	.	16bb\	.
.	.	.	.	.	.	.	.	.	.	16a#X\	.	.	8G#/	.	8B/	.	16e/	.	.	.	.	.	.	.	.	.	.	.	.	.	16aa\	.
.	.	.	.	.	.	.	.	.	.	16b\JJ)	.	.	.	.	.	.	16g#/JJ	.	.	.	.	.	.	.	.	.	.	.	.	.	16bb\JJ	.
4r	.	8r	.	8.G#\	at-	.	8.B\	at-	.	8ffn\L	.	.	8G#/	.	8B/	.	8b/L	.	.	.	.	.	.	.	.	.	.	.	.	.	8fffn\L	.
.	.	8B\	.	.	.	.	.	.	.	8ee\J	-per	.	8G#/J	.	8B/J	.	8d/J	.	.	.	.	.	.	.	.	.	.	.	.	.	8eee\J	.
.	.	.	.	16G#\	-que	.	16B\	-que	.	.	.	.	.	.	.	.	.	.	.	.	.	.	.	.	.	.	.	.	.	.	.	.
*	*	*	*	*	*	*	*	*	*	*	*	*	*Xtremolo	*	*Xtremolo	*	*Xrep	*	*	*	*	*	*	*	*	*	*	*	*	*	*	*
*	*	*	*	*	*	*	*	*	*	*	*	*	*	*	*	*	*	*	*	*	*	*v	*v	*	*	*	*	*	*	*	*	*
=29	=29	=29	=29	=29	=29	=29	=29	=29	=29	=29	=29	=29	=29	=29	=29	=29	=29	=29	=29	=29	=29	=29	=29	=29	=29	=29	=29	=29	=29	=29	=29
*	*	*	*	*	*	*	*	*	*	*	*	*	*	*	*	*	*	*	*	*	*	*	*	*	*	*	*	*^	*	*	*
4EE/	.	4E\	.	2B\	sem-	.	2d\	sem-	.	4ee\	vir-	.	2B/	.	2d/	.	16r	.	1r	1E 1e	.	1r	.	1EE	.	1G# 1B	.	2dd/	2b\	.	4eee\	.
.	.	.	.	.	.	.	.	.	.	.	.	.	.	.	.	.	16d/LL	.	.	.	.	.	.	.	.	.	.	.	.	.	.	.
.	.	.	.	.	.	.	.	.	.	.	.	.	.	.	.	.	16e/	.	.	.	.	.	.	.	.	.	.	.	.	.	.	.
.	.	.	.	.	.	.	.	.	.	.	.	.	.	.	.	.	16g#/JJ	.	.	.	.	.	.	.	.	.	.	.	.	.	.	.
4r	.	8r	.	.	.	.	.	.	.	4g#\	-go	.	.	.	.	.	8b/L	.	.	.	.	.	.	.	.	.	.	.	.	.	4gg#\	.
.	.	8BB/	.	.	.	.	.	.	.	.	.	.	.	.	.	.	8e/J	.	.	.	.	.	.	.	.	.	.	.	.	.	.	.
*	*	*	*	*	*	*	*	*	*	*	*	*	*	*	*	*	*rep	*	*	*	*	*	*	*	*	*	*	*	*	*	*	*
4EE/	.	4EE/	.	16A\LL	.	.	16cn\LL	.	.	2r	.	.	16A/LL	.	16cn/LL	.	16r	.	.	.	.	.	.	.	.	.	.	16ccn/LL	16a\LL	.	4r	.
.	.	.	.	16G#\	.	.	16B\	.	.	.	.	.	16G#/	.	16B/	.	16d/LL	.	.	.	.	.	.	.	.	.	.	16b/	16g#\	.	.	.
.	.	.	.	16F##X\	.	.	16A#X\	.	.	.	.	.	16F##X/	.	16A#X/	.	16e/	.	.	.	.	.	.	.	.	.	.	16a/	16f#X\	.	.	.
.	.	.	.	16G#\JJ	.	.	16B\JJ	.	.	.	.	.	16G#/JJ	.	16B/JJ	.	16g#/JJ	.	.	.	.	.	.	.	.	.	.	16b/JJ	16g#\JJ	.	.	.
8r	.	8r	.	8cn\	.	.	8e\	.	.	.	.	.	8c#/L	.	8e/L	.	8b/L	.	.	.	.	.	.	.	.	.	.	8ee/L	8ccn\L	.	[>4gg#\	.
8EE/	.	8EE/	.	8B\	-per	.	8d\	-per	.	.	.	.	8B/J	.	8d/J	.	8e/J	.	.	.	.	.	.	.	.	.	.	8dd/J	8b\J	.	.	.
*	*	*	*	*	*	*	*	*	*	*	*	*	*	*	*	*	*Xrep	*	*	*	*	*	*	*	*	*	*	*	*	*	*	*
*	*	*	*	*	*	*	*	*	*	*	*	*	*	*	*	*	*	*	*	*	*	*	*	*	*	*	*	*v	*v	*	*	*
=30	=30	=30	=30	=30	=30	=30	=30	=30	=30	=30	=30	=30	=30	=30	=30	=30	=30	=30	=30	=30	=30	=30	=30	=30	=30	=30	=30	=30	=30	=30	=30
4FFn/	<	4FFn/	<	4B\	vir-	.	4d\	vir-	.	4r	.	.	4B/	<	4d/	.	16r	.	1r	4r	.	4ryy	.	4FFn/	.	4G#/ 4B/	.	4b\	.	4gg#\]	<
.	.	.	.	.	.	.	.	.	.	.	.	.	.	.	.	.	(<16B/LL	.	.	.	.	.	.	.	.	.	.	.	.	.	.
.	.	.	.	.	.	.	.	.	.	.	.	.	.	.	.	.	16cn/	.	.	.	.	.	.	.	.	.	.	.	.	.	.
.	.	.	.	.	.	.	.	.	.	.	.	.	.	.	.	.	16fn/JJ	.	.	.	.	.	.	.	.	.	.	.	.	.	.
!	!	!	!	!	!	!	!	!	!LO:HP:b	!	!	!	!	!	!	!	!	!	!	!LO:SIC:v:s:t=2.fn	!	!	!	!	!	!	!	!	!	!	!
2.Fn\	.	2.Fn\	.	2A\	-go	.	2cn\	-go	<	2a\	at-	.	2A/	.	2cn/	.	16a/LL	.	.	2.A/ 2.f#/	.	2.A/	.	2.FF/	.	2A/ 2cX/	.	2.a/	.	(>2aa\	.
.	.	.	.	.	.	.	.	.	.	.	.	.	.	.	.	.	16bn/	.	.	.	.	.	.	.	.	.	.	.	.	.	.
.	.	.	.	.	.	.	.	.	.	.	.	.	.	.	.	.	16ccn/	.	.	.	.	.	.	.	.	.	.	.	.	.	.
.	.	.	.	.	.	.	.	.	.	.	.	.	.	.	.	.	16ffn/JJ)	.	.	.	.	.	.	.	.	.	.	.	.	.	.
.	.	.	.	.	.	.	.	.	.	.	.	.	.	.	.	.	4aa\	.	.	.	.	.	.	.	.	.	.	.	.	.	.
.	.	.	.	8A\	at-	.	4r	.	[	16b\LL	.	.	4A/	[[	4c/	.	4r	.	.	.	.	.	.	.	.	4A/ 4c/	.	.	.	16bb\LL	[
.	.	.	.	.	.	.	.	.	.	16a\JJ	.	.	.	.	.	.	.	.	.	.	.	.	.	.	.	.	.	.	.	16aa\	.
.	[	.	[	8Gn\	-que	.	.	.	.	16g#\LL	-que	.	.	.	.	.	.	.	.	.	.	.	.	.	.	.	.	.	.	16gg#\	.
.	.	.	.	.	.	.	.	.	.	16a\JJ	.	.	.	.	.	.	.	.	.	.	.	.	.	.	.	.	.	.	.	16aa\JJ)	.
=31	=31	=31	=31	=31	=31	=31	=31	=31	=31	=31	=31	=31	=31	=31	=31	=31	=31	=31	=31	=31	=31	=31	=31	=31	=31	=31	=31	=31	=31	=31	=31
*	*	*	*	*	*	*	*	*	*	*	*	*	*	*	*	*	*	*	*	*	*	*	*	*	*	*^	*	*^	*	*	*
*	*	*	*	*	*	*	*	*	*	*	*	*	*tremolo	*	*tremolo	*	*	*	*	*	*	*	*	*	*	*	*	*	*	*	*	*	*
!	!LO:DY:rj	!	!LO:DY:rj	!	!	!	!	!	!LO:DY:b:rj	!	!	!	!	!	!	!	!	!	!	!	!	!	!	!	!LO:DY:a:rj	!	!	!	!	!	!	!	!
1FFn	f	4FFn/	f	2.Fn\	sem-	.	4r	.	f	2.aa\	sem-	f	16ALL	.	16c#/LL	f	4r	f	1r	4r	.	4r	.	1FFn	f	4c#/	4A/	.	4cc#/	4a\	f	2aaa\	f
.	.	.	.	.	.	.	.	.	.	.	.	.	16A	.	16c#/	.	.	.	.	.	.	.	.	.	.	.	.	.	.	.	.	.	.
.	.	.	.	.	.	.	.	.	.	.	.	.	16A	.	16c#/	.	.	.	.	.	.	.	.	.	.	.	.	.	.	.	.	.	.
.	.	.	.	.	.	.	.	.	.	.	.	.	16A	.	16c#/JJ	.	.	.	.	.	.	.	.	.	.	.	.	.	.	.	.	.	.
!	!	!	!	!	!	!	!	!	!	!	!	!	!	!	!	!	!	!	!	!LO:SIC:v:s:t=4fn	!	!	!	!	!	!	!	!	!	!	!	!	!
.	.	2.Fn\	.	.	.	.	8c#X\	at-	.	.	.	.	16A	.	16c#X/LL	.	8a/L	.	.	4A/ 4f#/	.	4AA/ 4A/	.	.	.	4c#/	2.A\	.	4cc#/	4ryy	.	.	.
.	.	.	.	.	.	.	.	.	.	.	.	.	16A	.	16c#X/	.	.	.	.	.	.	.	.	.	.	.	.	.	.	.	.	.	.
.	.	.	.	.	.	.	8c#\	-que	.	.	.	.	16A	.	16c#X/	.	8c#/J	.	.	.	.	.	.	.	.	.	.	.	.	.	.	.	.
.	.	.	.	.	.	.	.	.	.	.	.	.	16A	.	16c#X/JJ	.	.	.	.	.	.	.	.	.	.	.	.	.	.	.	.	.	.
*	*	*	*	*	*	*	*	*	*	*	*	*	*	*	*	*	*	*	*	*rep	*	*	*	*	*	*	*	*	*	*	*	*	*
!	!	!	!	!	!	!	!	!	!	!	!	!	!	!	!	!	!	!	!	!LO:SIC:v:s:t=4fn	!	!	!	!	!	!	!	!	!	!	!	!	!
*	*	*	*	*	*	*	*	*	*	*	*	*	*	*	*	*	*	*	*	*	*	*rep	*	*	*	*	*	*	*	*	*	*	*
.	.	.	.	.	.	.	4d\	sem-	.	.	.	.	16A	.	16d/LL	.	8a/L	.	.	4A/ 4f#/	.	4AA/ 4A/	.	.	.	4d/	.	.	4dd/	2ryy	.	2r	.
.	.	.	.	.	.	.	.	.	.	.	.	.	16A	.	16d/	.	.	.	.	.	.	.	.	.	.	.	.	.	.	.	.	.	.
.	.	.	.	.	.	.	.	.	.	.	.	.	16A	.	16d/	.	8d/J	.	.	.	.	.	.	.	.	.	.	.	.	.	.	.	.
.	.	.	.	.	.	.	.	.	.	.	.	.	16A	.	16d/JJ	.	.	.	.	.	.	.	.	.	.	.	.	.	.	.	.	.	.
*	*	*	*	*	*	*	*	*	*	*	*	*	*	*	*	*	*	*	*	*Xrep	*	*Xrep	*	*	*	*	*	*	*	*	*	*	*
!	!	!	!	!	!	!	!	!	!	!	!	!	!	!	!	!	!	!	!	!LO:SIC:v:s:t=4fn	!	!	!	!	!	!	!	!	!	!	!	!	!
*	*	*	*	*	*	*	*	*	*	*	*	*	*	*	*	*	*	*	*	*rep	*	*rep	*	*	*	*	*	*	*	*	*	*	*
.	.	.	.	8F\	-per	.	4d#X\	-per	.	4a\	-per	.	16A	.	16d#X/LL	.	8a/L	.	.	4A/ 4f#/	.	4AA/ 4A/	.	.	.	4d#X/	.	.	4dd#X/	.	.	.	.
.	.	.	.	.	.	.	.	.	.	.	.	.	16A	.	16d#X/	.	.	.	.	.	.	.	.	.	.	.	.	.	.	.	.	.	.
.	.	.	.	8F\	vir-	.	.	.	.	.	.	.	16A	.	16d#X/	.	8d#X/J	.	.	.	.	.	.	.	.	.	.	.	.	.	.	.	.
.	.	.	.	.	.	.	.	.	.	.	.	.	16AJJ	.	16d#X/JJ	.	.	.	.	.	.	.	.	.	.	.	.	.	.	.	.	.	.
*	*	*	*	*	*	*	*	*	*	*	*	*	*Xtremolo	*	*Xtremolo	*	*	*	*	*Xrep	*	*Xrep	*	*	*	*	*	*	*	*	*	*	*
*	*	*	*	*	*	*	*	*	*	*	*	*	*	*	*	*	*	*	*	*	*	*	*	*	*	*	*	*	*v	*v	*	*	*
=32	=32	=32	=32	=32	=32	=32	=32	=32	=32	=32	=32	=32	=32	=32	=32	=32	=32	=32	=32	=32	=32	=32	=32	=32	=32	=32	=32	=32	=32	=32	=32	=32
4EE/	.	4E\	.	2E\	-go	.	2e\	at-	.	2g#\	at-	.	4B/	.	4e/	.	4g#/	.	1r	2E/ 2e/	.	4e\	.	4EE/	.	2g#/	2e\	.	4ee/	.	1r	.
4r	.	4r	.	.	.	.	.	.	.	.	.	.	4r	.	4r	.	4r	.	.	.	.	4r	.	4r	.	.	.	.	4r	.	.	.
2r	.	2r	.	2r	.	.	(>16f#\LL	.	.	(>16a\LL	.	.	2r	.	2r	.	2r	.	.	2r	.	2r	.	2r	.	16a/LL	16f#\LL	.	2r	.	.	.
.	.	.	.	.	.	.	16e\	.	.	16g#\	.	.	.	.	.	.	.	.	.	.	.	.	.	.	.	16g#/	16e\	.	.	.	.	.
.	.	.	.	.	.	.	16d#X\	.	.	16f#\	.	.	.	.	.	.	.	.	.	.	.	.	.	.	.	16f#/	16d#X\	.	.	.	.	.
.	.	.	.	.	.	.	16e\JJ)	.	.	16g#\JJ)	.	.	.	.	.	.	.	.	.	.	.	.	.	.	.	16g#/JJ	16e\JJ	.	.	.	.	.
.	.	.	.	.	.	.	8a\L	.	.	8cc#X\L	.	.	.	.	.	.	.	.	.	.	.	.	.	.	.	8cc#/L	8a\L	.	.	.	.	.
.	.	.	.	.	.	.	8g#\J	-que	.	8b\J	-que	.	.	.	.	.	.	.	.	.	.	.	.	.	.	8b/J	8g#\J	.	.	.	.	.
=33	=33	=33	=33	=33	=33	=33	=33	=33	=33	=33	=33	=33	=33	=33	=33	=33	=33	=33	=33	=33	=33	=33	=33	=33	=33	=33	=33	=33	=33	=33	=33	=33
4BB/	.	1BB	.	4B\	sem-	.	2g#\	sem-	.	(>2b\	sem-	.	4B/	.	4B/	.	4B/	.	1r	1r	.	1r	.	1r	.	2b/	2g#\	.	1r	.	1r	.
4r	.	.	.	(>16c#\LL	.	.	.	.	.	.	.	.	(<16c#/LL	.	(<16c#/LL	.	(<16c#/LL	.	.	.	.	.	.	.	.	.	.	.	.	.	.	.
.	.	.	.	16B\	.	.	.	.	.	.	.	.	16B/	.	16B/	.	16B/	.	.	.	.	.	.	.	.	.	.	.	.	.	.	.
.	.	.	.	16A#X\	.	.	.	.	.	.	.	.	16A#X/	.	16A#X/	.	16A#X/	.	.	.	.	.	.	.	.	.	.	.	.	.	.	.
.	.	.	.	16B\JJ)	.	.	.	.	.	.	.	.	16B/JJ)	.	16B/JJ)	.	16B/JJ)	.	.	.	.	.	.	.	.	.	.	.	.	.	.	.
2r	.	.	.	4c#\	.	.	4gn\	.	.	4a#X\)	.	.	4c#/	.	4c#/	.	4c#/	.	.	.	.	.	.	.	.	4a#X/	4f##X\	.	.	.	.	.
*	*	*	*	*	*	*	*	*	*	*	*	*	*	*	*tremolo	*	*	*	*	*	*	*	*	*	*	*	*	*	*	*	*	*
.	.	.	.	4d#X\	.	.	4f#\	.	.	4an\	[[per]]	.	4d#X/	.	16d#X/LL	.	4d#Xt>/	.	.	.	.	.	.	.	.	4a/	4f#\	.	.	.	.	.
.	.	.	.	.	.	.	.	.	.	.	.	.	.	.	16d#X/	.	.	.	.	.	.	.	.	.	.	.	.	.	.	.	.	.
.	.	.	.	.	.	.	.	.	.	.	.	.	.	.	16d#X/	.	.	.	.	.	.	.	.	.	.	.	.	.	.	.	.	.
.	.	.	.	.	.	.	.	.	.	.	.	.	.	.	16d#X/JJ	.	.	.	.	.	.	.	.	.	.	.	.	.	.	.	.	.
.	.	.	.	.	.	.	.	.	.	.	.	.	.	.	.	.	16qqc#/LL	.	.	.	.	.	.	.	.	.	.	.	.	.	.	.
.	.	.	.	.	.	.	.	.	.	.	.	.	.	.	.	.	16qqd#/JJ	.	.	.	.	.	.	.	.	.	.	.	.	.	.	.
*	*	*	*	*	*	*	*	*	*	*	*	*	*	*	*Xtremolo	*	*	*	*	*	*	*	*	*	*	*	*	*	*	*	*	*
*	*	*	*	*	*	*	*	*	*	*	*	*	*	*	*	*	*	*	*	*	*	*	*	*	*	*v	*v	*	*	*	*	*
!!LO:PB:g=original
=34	=34	=34	=34	=34	=34	=34	=34	=34	=34	=34	=34	=34	=34	=34	=34	=34	=34	=34	=34	=34	=34	=34	=34	=34	=34	=34	=34	=34	=34	=34	=34
4EE/	.	8EE/	.	2e\	-per	.	2e\	-per	.	2g#\	-per	.	8e\	.	8e/	.	8e/	.	4r	4r	.	4r	.	4r	.	8e/ 8g#/	.	4r	.	4r	.
.	.	8r	.	.	.	.	.	.	.	.	.	.	8r	.	8r	.	8r	.	.	.	.	.	.	.	.	8r	.	.	.	.	.
*	*	*tremolo	*	*	*	*	*	*	*	*	*	*	*tremolo	*	*tremolo	*	*tremolo	*	*2\right	*	*	*	*	*	*	*	*	*	*	*	*
!	!	!	!	!	!	!	!	!	!	!	!	!	!	!	!	!	!	!	!LO:TX:t=P:problem:all\right:global	!	!LO:DY:rj	!	!	!	!LO:DY:rj	!	!	!	!LO:DY:rj	!	!LO:DY:rj
4r	.	32E\LLL	.	.	.	.	.	.	.	.	.	.	32E/LLL	.	32e/LLL	.	32e/LLL	.	2b\	2E/ 2e/	fz	2e\	.	2EE/ 2E/	fz	2.e\ 2.ee\	.	2ee\	fz	2eee\	fz
.	.	32E\	.	.	.	.	.	.	.	.	.	.	32E/	.	32e/	.	32e/	.	.	.	.	.	.	.	.	.	.	.	.	.	.
.	.	32E\	.	.	.	.	.	.	.	.	.	.	32E/	.	32e/	.	32e/	.	.	.	.	.	.	.	.	.	.	.	.	.	.
.	.	32E\	.	.	.	.	.	.	.	.	.	.	32E/	.	32e/	.	32e/	.	.	.	.	.	.	.	.	.	.	.	.	.	.
.	.	32E\	.	.	.	.	.	.	.	.	.	.	32E/	.	32e/	.	32e/	.	.	.	.	.	.	.	.	.	.	.	.	.	.
.	.	32E\	.	.	.	.	.	.	.	.	.	.	32E/	.	32e/	.	32e/	.	.	.	.	.	.	.	.	.	.	.	.	.	.
.	.	32E\	.	.	.	.	.	.	.	.	.	.	32E/	.	32e/	.	32e/	.	.	.	.	.	.	.	.	.	.	.	.	.	.
.	.	32E\	.	.	.	.	.	.	.	.	.	.	32E/	.	32e/	.	32e/	.	.	.	.	.	.	.	.	.	.	.	.	.	.
2r	.	32E\	.	4r	.	.	4r	.	.	4r	.	.	32E/	.	32e/	.	32e/	.	.	.	.	.	.	.	.	.	.	.	.	.	.
.	.	32E\	.	.	.	.	.	.	.	.	.	.	32E/	.	32e/	.	32e/	.	.	.	.	.	.	.	.	.	.	.	.	.	.
.	.	32E\	.	.	.	.	.	.	.	.	.	.	32E/	.	32e/	.	32e/	.	.	.	.	.	.	.	.	.	.	.	.	.	.
.	.	32E\	.	.	.	.	.	.	.	.	.	.	32E/	.	32e/	.	32e/	.	.	.	.	.	.	.	.	.	.	.	.	.	.
.	.	32E\	.	.	.	.	.	.	.	.	.	.	32E/	.	32e/	.	32e/	.	.	.	.	.	.	.	.	.	.	.	.	.	.
.	.	32E\	.	.	.	.	.	.	.	.	.	.	32E/	.	32e/	.	32e/	.	.	.	.	.	.	.	.	.	.	.	.	.	.
.	.	32E\	.	.	.	.	.	.	.	.	.	.	32E/	.	32e/	.	32e/	.	.	.	.	.	.	.	.	.	.	.	.	.	.
.	.	32E\	.	.	.	.	.	.	.	.	.	.	32E/	.	32e/	.	32e/	.	.	.	.	.	.	.	.	.	.	.	.	.	.
.	.	32E\	.	8E\	fe-	.	8e\	fe-	.	8e/	Fe-	.	32E/	.	32e/	.	32e/	.	4r	4r	.	4r	.	4r	.	.	.	4r	.	4r	.
.	.	32E\	.	.	.	.	.	.	.	.	.	.	32E/	.	32e/	.	32e/	.	.	.	.	.	.	.	.	.	.	.	.	.	.
.	.	32E\	.	.	.	.	.	.	.	.	.	.	32E/	.	32e/	.	32e/	.	.	.	.	.	.	.	.	.	.	.	.	.	.
.	.	32E\	.	.	.	.	.	.	.	.	.	.	32E/	.	32e/	.	32e/	.	.	.	.	.	.	.	.	.	.	.	.	.	.
.	.	32E\	.	8E\	-lix	.	8e\	-lix	.	8e/	-lix	.	32E/	.	32e/	.	32e/	.	.	.	.	.	.	.	.	.	.	.	.	.	.
.	.	32E\	.	.	.	.	.	.	.	.	.	.	32E/	.	32e/	.	32e/	.	.	.	.	.	.	.	.	.	.	.	.	.	.
.	.	32E\	.	.	.	.	.	.	.	.	.	.	32E/	.	32e/	.	32e/	.	.	.	.	.	.	.	.	.	.	.	.	.	.
.	.	32E\JJJ	.	.	.	.	.	.	.	.	.	.	32E/JJJ	.	32e/JJJ	.	32e/JJJ	.	.	.	.	.	.	.	.	.	.	.	.	.	.
=35	=35	=35	=35	=35	=35	=35	=35	=35	=35	=35	=35	=35	=35	=35	=35	=35	=35	=35	=35	=35	=35	=35	=35	=35	=35	=35	=35	=35	=35	=35	=35
1r	.	32ELLL	.	4.dn\	cae-	.	4.e\	cae-	.	4.b\	cae-	.	32ELLL	.	32eLLL	.	32eLLL	.	1r	1r	.	1r	.	1r	.	1e 1ee	.	1r	.	1r	.
.	.	32E	.	.	.	.	.	.	.	.	.	.	32E	.	32e	.	32e	.	.	.	.	.	.	.	.	.	.	.	.	.	.
.	.	32E	.	.	.	.	.	.	.	.	.	.	32E	.	32e	.	32e	.	.	.	.	.	.	.	.	.	.	.	.	.	.
.	.	32E	.	.	.	.	.	.	.	.	.	.	32E	.	32e	.	32e	.	.	.	.	.	.	.	.	.	.	.	.	.	.
.	.	32E	.	.	.	.	.	.	.	.	.	.	32E	.	32e	.	32e	.	.	.	.	.	.	.	.	.	.	.	.	.	.
.	.	32E	.	.	.	.	.	.	.	.	.	.	32E	.	32e	.	32e	.	.	.	.	.	.	.	.	.	.	.	.	.	.
.	.	32E	.	.	.	.	.	.	.	.	.	.	32E	.	32e	.	32e	.	.	.	.	.	.	.	.	.	.	.	.	.	.
.	.	32E	.	.	.	.	.	.	.	.	.	.	32E	.	32e	.	32e	.	.	.	.	.	.	.	.	.	.	.	.	.	.
.	.	32E	.	.	.	.	.	.	.	.	.	.	32E	.	32e	.	32e	.	.	.	.	.	.	.	.	.	.	.	.	.	.
.	.	32E	.	.	.	.	.	.	.	.	.	.	32E	.	32e	.	32e	.	.	.	.	.	.	.	.	.	.	.	.	.	.
.	.	32E	.	.	.	.	.	.	.	.	.	.	32E	.	32e	.	32e	.	.	.	.	.	.	.	.	.	.	.	.	.	.
.	.	32E	.	.	.	.	.	.	.	.	.	.	32E	.	32e	.	32e	.	.	.	.	.	.	.	.	.	.	.	.	.	.
.	.	32E	.	8B\	-li	.	8e\	-li	.	8g#\	-li	.	32E	.	32e	.	32e	.	.	.	.	.	.	.	.	.	.	.	.	.	.
.	.	32E	.	.	.	.	.	.	.	.	.	.	32E	.	32e	.	32e	.	.	.	.	.	.	.	.	.	.	.	.	.	.
.	.	32E	.	.	.	.	.	.	.	.	.	.	32E	.	32e	.	32e	.	.	.	.	.	.	.	.	.	.	.	.	.	.
.	.	32E	.	.	.	.	.	.	.	.	.	.	32E	.	32e	.	32e	.	.	.	.	.	.	.	.	.	.	.	.	.	.
.	.	32E	.	4.cn\	fe-	.	4.e\	fe-	.	4.a\	fe-	.	32E	.	32e	.	32e	.	.	.	.	.	.	.	.	.	.	.	.	.	.
.	.	32E	.	.	.	.	.	.	.	.	.	.	32E	.	32e	.	32e	.	.	.	.	.	.	.	.	.	.	.	.	.	.
.	.	32E	.	.	.	.	.	.	.	.	.	.	32E	.	32e	.	32e	.	.	.	.	.	.	.	.	.	.	.	.	.	.
.	.	32E	.	.	.	.	.	.	.	.	.	.	32E	.	32e	.	32e	.	.	.	.	.	.	.	.	.	.	.	.	.	.
.	.	32E	.	.	.	.	.	.	.	.	.	.	32E	.	32e	.	32e	.	.	.	.	.	.	.	.	.	.	.	.	.	.
.	.	32E	.	.	.	.	.	.	.	.	.	.	32E	.	32e	.	32e	.	.	.	.	.	.	.	.	.	.	.	.	.	.
.	.	32E	.	.	.	.	.	.	.	.	.	.	32E	.	32e	.	32e	.	.	.	.	.	.	.	.	.	.	.	.	.	.
.	.	32E	.	.	.	.	.	.	.	.	.	.	32E	.	32e	.	32e	.	.	.	.	.	.	.	.	.	.	.	.	.	.
.	.	32E	.	.	.	.	.	.	.	.	.	.	32E	.	32e	.	32e	.	.	.	.	.	.	.	.	.	.	.	.	.	.
.	.	32E	.	.	.	.	.	.	.	.	.	.	32E	.	32e	.	32e	.	.	.	.	.	.	.	.	.	.	.	.	.	.
.	.	32E	.	.	.	.	.	.	.	.	.	.	32E	.	32e	.	32e	.	.	.	.	.	.	.	.	.	.	.	.	.	.
.	.	32E	.	.	.	.	.	.	.	.	.	.	32E	.	32e	.	32e	.	.	.	.	.	.	.	.	.	.	.	.	.	.
.	.	32E	.	8A\	-lix	.	8e\	-lix	.	8ccn\	-lix	.	32E	.	32e	.	32e	.	.	.	.	.	.	.	.	.	.	.	.	.	.
.	.	32E	.	.	.	.	.	.	.	.	.	.	32E	.	32e	.	32e	.	.	.	.	.	.	.	.	.	.	.	.	.	.
.	.	32E	.	.	.	.	.	.	.	.	.	.	32E	.	32e	.	32e	.	.	.	.	.	.	.	.	.	.	.	.	.	.
.	.	32EJJJ	.	.	.	.	.	.	.	.	.	.	32EJJJ	.	32eJJJ	.	32eJJJ	.	.	.	.	.	.	.	.	.	.	.	.	.	.
=36	=36	=36	=36	=36	=36	=36	=36	=36	=36	=36	=36	=36	=36	=36	=36	=36	=36	=36	=36	=36	=36	=36	=36	=36	=36	=36	=36	=36	=36	=36	=36
*	*	*	*	*	*	*	*	*	*	*	*	*	*tremolo	*	*tremolo	*	*tremolo	*	*	*	*	*	*	*	*	*	*	*	*	*	*
!	!	!	!	!	!	!	!	!	!	!	!	!	!	!	!	!	!	!LO:DY:rj	!	!	!	!	!	!	!	!	!	!	!	!	!
4A\	.	32ELLL	.	8.G#\L	cae-	.	4e\	cae-	.	(>8.b\L	cae-	.	32ELLL	.	32eLLL	<	32eLLL	pp <	1r	1r	.	1r	.	1r	.	1r	.	1r	.	1r	.
.	.	32E	.	.	.	.	.	.	.	.	.	.	32E	.	32e	.	32e	.	.	.	.	.	.	.	.	.	.	.	.	.	.
.	.	32E	.	.	.	.	.	.	.	.	.	.	32E	.	32e	.	32e	.	.	.	.	.	.	.	.	.	.	.	.	.	.
.	.	32E	.	.	.	.	.	.	.	.	.	.	32E	.	32e	.	32e	.	.	.	.	.	.	.	.	.	.	.	.	.	.
.	.	32E	.	.	.	.	.	.	.	.	.	.	32E	.	32e	.	32e	.	.	.	.	.	.	.	.	.	.	.	.	.	.
.	.	32E	.	.	.	.	.	.	.	.	.	.	32E	.	32e	.	32e	.	.	.	.	.	.	.	.	.	.	.	.	.	.
.	.	32E	.	16A\Jk	.	.	.	.	.	16ccn\Jk	.	.	32E	.	32e	.	32e	.	.	.	.	.	.	.	.	.	.	.	.	.	.
.	.	32E	.	.	.	.	.	.	.	.	.	.	32E	.	32e	.	32e	.	.	.	.	.	.	.	.	.	.	.	.	.	.
4r	.	32E	.	4G#\	-li	.	4e\	-li	.	4b\)	-li	.	32E	.	32e	.	32e	.	.	.	.	.	.	.	.	.	.	.	.	.	.
.	.	32E	.	.	.	.	.	.	.	.	.	.	32E	.	32e	.	32e	.	.	.	.	.	.	.	.	.	.	.	.	.	.
.	.	32E	.	.	.	.	.	.	.	.	.	.	32E	.	32e	.	32e	.	.	.	.	.	.	.	.	.	.	.	.	.	.
.	.	32E	.	.	.	.	.	.	.	.	.	.	32E	.	32e	.	32e	.	.	.	.	.	.	.	.	.	.	.	.	.	.
.	.	32E	.	.	.	.	.	.	.	.	.	.	32E	.	32e	.	32e	.	.	.	.	.	.	.	.	.	.	.	.	.	.
.	.	32E	.	.	.	.	.	.	.	.	.	.	32E	.	32e	.	32e	.	.	.	.	.	.	.	.	.	.	.	.	.	.
.	.	32E	.	.	.	.	.	.	.	.	.	.	32E	.	32e	.	32e	.	.	.	.	.	.	.	.	.	.	.	.	.	.
.	.	32E	.	.	.	.	.	.	.	.	.	.	32E	.	32e	.	32e	.	.	.	.	.	.	.	.	.	.	.	.	.	.
2r	.	32E	.	4r	.	.	4r	.	.	4r	.	.	32E	.	32e	.	32e	.	.	.	.	.	.	.	.	.	.	.	.	.	.
.	.	32E	.	.	.	.	.	.	.	.	.	.	32E	.	32e	.	32e	.	.	.	.	.	.	.	.	.	.	.	.	.	.
.	.	32E	.	.	.	.	.	.	.	.	.	.	32E	.	32e	.	32e	.	.	.	.	.	.	.	.	.	.	.	.	.	.
.	.	32E	.	.	.	.	.	.	.	.	.	.	32E	.	32e	.	32e	.	.	.	.	.	.	.	.	.	.	.	.	.	.
.	.	32E	.	.	.	.	.	.	.	.	.	.	32E	.	32e	.	32e	.	.	.	.	.	.	.	.	.	.	.	.	.	.
.	.	32E	.	.	.	.	.	.	.	.	.	.	32E	.	32e	.	32e	.	.	.	.	.	.	.	.	.	.	.	.	.	.
.	.	32E	.	.	.	.	.	.	.	.	.	.	32E	.	32e	.	32e	.	.	.	.	.	.	.	.	.	.	.	.	.	.
.	.	32E	.	.	.	.	.	.	.	.	.	.	32E	.	32e	.	32e	.	.	.	.	.	.	.	.	.	.	.	.	.	.
.	.	32E	.	4G#\	por-	.	4e\	por-	.	8.ee\L	por-	.	32E	.	32e	.	32e	.	.	.	.	.	.	.	.	.	.	.	.	.	.
.	.	32E	.	.	.	.	.	.	.	.	.	.	32E	.	32e	.	32e	.	.	.	.	.	.	.	.	.	.	.	.	.	.
.	.	32E	.	.	.	.	.	.	.	.	.	.	32E	.	32e	.	32e	.	.	.	.	.	.	.	.	.	.	.	.	.	.
.	.	32E	.	.	.	.	.	.	.	.	.	.	32E	.	32e	.	32e	.	.	.	.	.	.	.	.	.	.	.	.	.	.
.	.	32E	.	.	.	.	.	.	.	.	.	.	32E	.	32e	.	32e	.	.	.	.	.	.	.	.	.	.	.	.	.	.
.	.	32E	.	.	.	.	.	.	.	.	.	.	32E	.	32e	.	32e	.	.	.	.	.	.	.	.	.	.	.	.	.	.
.	.	32E	.	.	.	.	.	.	.	16dd\Jk	.	.	32E	.	32e	.	32e	.	.	.	.	.	.	.	.	.	.	.	.	.	.
.	.	32EJJJ	.	.	.	.	.	.	.	.	.	.	32EJJJ	.	32eJJJ	[	32eJJJ	[	.	.	.	.	.	.	.	.	.	.	.	.	.
*	*	*Xtremolo	*	*	*	*	*	*	*	*	*	*	*Xtremolo	*	*Xtremolo	*	*Xtremolo	*	*	*	*	*	*	*	*	*	*	*	*	*	*
=37	=37	=37	=37	=37	=37	=37	=37	=37	=37	=37	=37	=37	=37	=37	=37	=37	=37	=37	=37	=37	=37	=37	=37	=37	=37	=37	=37	=37	=37	=37	=37
*	*	*	*	*	*	*	*	*	*	*	*	*	*	*	*	*	*	*	*	*2\right	*	*	*	*	*	*	*	*	*	*	*
!	!	!	!	!	!	!	!	!	!	!	!	!	!	!	!	!	!	!	!	!LO:TX:t=P:problem:all\right:global	!	!	!	!	!	!	!	!	!	!	!
!	!LO:DY:rj	!	!LO:DY:rj	!	!	!	!	!	!LO:DY:b:rj	!	!	!LO:DY:b:rj	!	!	!	!LO:DY:rj	!	!	!	!LO:TX:a:t=c	!LO:DY:rj	!	!	!	!	!	!LO:DY:rj	!	!	!	!
4A\	f	4A\	f	4A\	-ta	.	4e\	-ta	f	4ccn\	-ta	f	4a\	.	4a\ 4aa\	f	4cccn\	.	4e/	4a\	f	4A\ 4a\	.	4AA/	.	4a\ 4ccX\	f	4a\ 4ccn\	.	4cccn\	f
4r	.	4r	.	8r	.	.	8r	.	.	8r	.	.	4r	.	4r	.	4r	.	4r	4r	.	4r	.	4r	.	4r	.	4r	.	4r	.
.	.	.	.	8A\	por-	.	8cn\	por-	.	8cc\	por-	.	.	.	.	.	.	.	.	.	.	.	.	.	.	.	.	.	.	.	.
!	!	!	!	!	!	!	!	!	!	!	!	!	!	!	!	!	!	!	!	!LO:TX:a:t=c	!	!	!	!	!	!	!	!	!	!	!
4Fn\	.	4Fn\	.	2Fn\	.	.	2A\ 2a	.	.	4.dd\	.	.	4fn\	.	4a\ 4aa\	.	4ddd\	.	4e/	4a\	.	4A\ 4a\	.	4FFn/	.	4a\ 4cc\	.	4a\ 4cc\	.	4ccc\	.
4r	.	4r	.	.	.	.	.	.	.	.	.	.	4r	.	4r	.	4r	.	4r	4r	.	4r	.	4r	.	4r	.	4r	.	4r	.
.	.	.	.	.	.	.	.	.	.	16qqee/LL	.	.	.	.	.	.	.	.	.	.	.	.	.	.	.	.	.	.	.	.	.
.	.	.	.	.	.	.	.	.	.	16qqdd/	.	.	.	.	.	.	.	.	.	.	.	.	.	.	.	.	.	.	.	.	.
.	.	.	.	.	.	.	.	.	.	16qqcc/JJ	.	.	.	.	.	.	.	.	.	.	.	.	.	.	.	.	.	.	.	.	.
.	.	.	.	.	.	.	.	.	.	8dd\	.	.	.	.	.	.	.	.	.	.	.	.	.	.	.	.	.	.	.	.	.
=38	=38	=38	=38	=38	=38	=38	=38	=38	=38	=38	=38	=38	=38	=38	=38	=38	=38	=38	=38	=38	=38	=38	=38	=38	=38	=38	=38	=38	=38	=38	=38
4E\	.	4E\	.	2E\	-ta	.	2B\ 2g#	-ta	.	4ee\	-ta	.	2e\	.	2b\ 2gg#X\	.	2eee\	.	2b\	2e\ 2b\	.	2e\	.	2EE/	.	2g#\ 2ee\	.	2g#\ 2ee\	.	2eee\	.
4r	.	4r	.	.	.	.	.	.	.	2.ee\	Sol-	.	.	.	.	.	.	.	.	.	.	.	.	.	.	.	.	.	.	.	.
2r	.	2r	.	2r	.	.	2r	.	.	.	.	.	4r	.	4r	.	2r	.	2r	2r	.	2r	.	2r	.	2r	.	2r	.	2r	.
.	.	.	.	.	.	.	.	.	.	.	.	.	4E/	.	4G#/	.	.	.	.	.	.	.	.	.	.	.	.	.	.	.	.
=39	=39	=39	=39	=39	=39	=39	=39	=39	=39	=39	=39	=39	=39	=39	=39	=39	=39	=39	=39	=39	=39	=39	=39	=39	=39	=39	=39	=39	=39	=39	=39
!LO:TX:a:t=Caland	!	!	!	!	!	!	!	!	!	!LO:TX:a:t=Calando	!	!	!	!	!LO:TX:a:t=Calando	!	!	!	!	!	!	!	!	!	!	!	!	!	!	!LO:TX:a:t=Calando	!
1r	.	1r	.	1r	.	.	1r	.	.	2dd#X\	-ve	.	2F#/	.	2A/	.	1r	.	1r	1r	.	1r	.	1r	.	1r	.	1r	.	1r	.
.	.	.	.	.	.	.	.	.	.	4.ddn\	vin-	.	2G#/	.	2B/	.	.	.	.	.	.	.	.	.	.	.	.	.	.	.	.
.	.	.	.	.	.	.	.	.	.	8dd\	-cla	.	.	.	.	.	.	.	.	.	.	.	.	.	.	.	.	.	.	.	.
=40	=40	=40	=40	=40	=40	=40	=40	=40	=40	=40	=40	=40	=40	=40	=40	=40	=40	=40	=40	=40	=40	=40	=40	=40	=40	=40	=40	=40	=40	=40	=40
!LO:TX:b:i:t=pizz	!	!	!	!	!	!	!	!	!	!	!	!	!	!	!	!	!	!	!	!	!	!	!	!	!	!	!	!	!	!	!
!LO:TX:a:t=tempo	!	!	!LO:DY:a	!	!	!	!	!	!	!LO:TX:a:t=tempo	!	!	!	!	!	!	!	!	!	!	!	!	!	!	!	!	!	!	!	!LO:TX:a:t=tempo	!
4AA/	.	4AA/	p	2r	.	.	1e	Sol-	p	4.cc#X\	re-	.	1A	p	1c#X	.	16r	p	1r	1r	.	1r	.	1r	.	1g# 1cc#X	pp	1r	.	1r	.
.	.	.	.	.	.	.	.	.	.	.	.	.	.	.	.	.	(16c#X/LL	.	.	.	.	.	.	.	.	.	.	.	.	.	.
.	.	.	.	.	.	.	.	.	.	.	.	.	.	.	.	.	16e/	.	.	.	.	.	.	.	.	.	.	.	.	.	.
.	.	.	.	.	.	.	.	.	.	.	.	.	.	.	.	.	16a/JJ	.	.	.	.	.	.	.	.	.	.	.	.	.	.
4r	.	8r	.	.	.	.	.	.	.	.	.	.	.	.	.	.	8cc#/L	.	.	.	.	.	.	.	.	.	.	.	.	.	.
.	.	8E\	.	.	.	.	.	.	.	(>8cc#\	-is	.	.	.	.	.	8e/J)	.	.	.	.	.	.	.	.	.	.	.	.	.	.
*	*	*	*	*	*	*	*	*	*	*	*	*	*	*	*	*	*rep	*	*	*	*	*	*	*	*	*	*	*	*	*	*
4A\	.	4AA/	.	4r	.	.	.	.	.	16b\LL	sol-	.	.	.	.	.	16r	.	.	.	.	.	.	.	.	.	.	.	.	.	.
.	.	.	.	.	.	.	.	.	.	16a\	.	.	.	.	.	.	(16c#X/LL	.	.	.	.	.	.	.	.	.	.	.	.	.	.
.	.	.	.	.	.	.	.	.	.	16g#\	.	.	.	.	.	.	16e/	.	.	.	.	.	.	.	.	.	.	.	.	.	.
.	.	.	.	.	.	.	.	.	.	16a\JJ)	.	.	.	.	.	.	16a/JJ	.	.	.	.	.	.	.	.	.	.	.	.	.	.
4r	.	8r	.	8c#\	Sol-	.	.	.	.	8ff#\	.	.	.	.	.	.	8cc#/L	.	.	.	.	.	.	.	.	.	.	.	.	.	.
.	.	8E\	.	8c#\	-ve	.	.	.	.	8ee\	-ve	.	.	.	.	.	8e/J)	.	.	.	.	.	.	.	.	.	.	.	.	.	.
=41	=41	=41	=41	=41	=41	=41	=41	=41	=41	=41	=41	=41	=41	=41	=41	=41	=41	=41	=41	=41	=41	=41	=41	=41	=41	=41	=41	=41	=41	=41	=41
*	*	*	*	*	*	*	*	*	*	*	*	*	*	*	*	*	*	*	*	*	*	*	*	*	*	*	*	*^	*	*	*
4E\	.	4G#\	.	[>2d\	vin-	.	2e\	-ve	.	2ee\	vin-	.	1G#	.	1B	.	16r	.	1r	4r	.	1r	.	4r	.	1g# 1b	.	4r	4ryy	.	1r	.
.	.	.	.	.	.	.	.	.	.	.	.	.	.	.	.	.	(16d/LL	.	.	.	.	.	.	.	.	.	.	.	.	.	.	.
.	.	.	.	.	.	.	.	.	.	.	.	.	.	.	.	.	16e/	.	.	.	.	.	.	.	.	.	.	.	.	.	.	.
.	.	.	.	.	.	.	.	.	.	.	.	.	.	.	.	.	16g#/JJ	.	.	.	.	.	.	.	.	.	.	.	.	.	.	.
4r	.	8r	.	.	.	.	.	.	.	.	.	.	.	.	.	.	8b/L	.	.	4E/ 4e/	.	.	.	4G#\ 4B\	.	.	.	2ee/	2ee\	.	.	.
.	.	8F#\	.	.	.	.	.	.	.	.	.	.	.	.	.	.	8e/J)	.	.	.	.	.	.	.	.	.	.	.	.	.	.	.
*	*	*	*	*	*	*	*	*	*	*	*	*	*	*	*	*	*rep	*	*	*	*	*	*	*	*	*	*	*	*	*	*	*
4E\	.	4G#\	.	8d\]	.	.	4r	.	.	4g#\	-cla	.	.	.	.	.	16r	.	.	4r	.	.	.	4r	.	.	.	.	.	.	.	.
.	.	.	.	.	.	.	.	.	.	.	.	.	.	.	.	.	(16d/LL	.	.	.	.	.	.	.	.	.	.	.	.	.	.	.
.	.	.	.	8c#\	-cla	.	.	.	.	.	.	.	.	.	.	.	16e/	.	.	.	.	.	.	.	.	.	.	.	.	.	.	.
.	.	.	.	.	.	.	.	.	.	.	.	.	.	.	.	.	16g#/JJ	.	.	.	.	.	.	.	.	.	.	.	.	.	.	.
4r	.	8r	.	8B\	pro-	.	8e\	pro-	.	8.b\	pro-	.	.	.	.	.	8b/L	.	.	4E/ 4e/	.	.	.	4G#\ 4B\	.	.	.	4r	4ryy	.	.	.
.	.	8E\	.	8A\	-fer	.	8e\	-fer	.	.	.	.	.	.	.	.	8e/J)	.	.	.	.	.	.	.	.	.	.	.	.	.	.	.
.	.	.	.	.	.	.	.	.	.	16cc#\	-fer	.	.	.	.	.	.	.	.	.	.	.	.	.	.	.	.	.	.	.	.	.
*	*	*	*	*	*	*	*	*	*	*	*	*	*	*	*	*	*	*	*	*	*	*	*	*	*	*	*	*v	*v	*	*	*
!!LO:PB:g=original
=42	=42	=42	=42	=42	=42	=42	=42	=42	=42	=42	=42	=42	=42	=42	=42	=42	=42	=42	=42	=42	=42	=42	=42	=42	=42	=42	=42	=42	=42	=42	=42
.	.	.	.	8qA/	.	.	.	.	.	.	.	.	.	.	.	.	.	.	.	.	.	.	.	.	.	.	.	.	.	.	.
4E\	.	4BB/	.	4G#\	lu-	.	2.e\	lu-	.	4.dd\	lu-	.	1G#	.	1B	.	16r	.	1ryy	4r	.	1r	.	4r	.	1g# 1b	.	1r	.	1r	.
.	.	.	.	.	.	.	.	.	.	.	.	.	.	.	.	.	(<16d/LL	.	.	.	.	.	.	.	.	.	.	.	.	.	.
.	.	.	.	.	.	.	.	.	.	.	.	.	.	.	.	.	16e/	.	.	.	.	.	.	.	.	.	.	.	.	.	.
.	.	.	.	.	.	.	.	.	.	.	.	.	.	.	.	.	16g#/JJ	.	.	.	.	.	.	.	.	.	.	.	.	.	.
4r	.	8r	.	4G#\	-men	.	.	.	.	.	.	.	.	.	.	.	8b/L	.	.	4E/ 4e/	.	.	.	4G#\ 4B\	.	.	.	.	.	.	.
.	.	8E\	.	.	.	.	.	.	.	8dd\	-men	.	.	.	.	.	8e/J)	.	.	.	.	.	.	.	.	.	.	.	.	.	.
*	*	*	*	*	*	*	*	*	*	*	*	*	*	*	*	*	*rep	*	*	*	*	*	*	*	*	*	*	*	*	*	*
4EE/	.	4EE/	.	4r	.	.	.	.	.	(>16cc#\LL	lu-	.	.	.	.	.	16r	.	.	4r	.	.	.	4r	.	.	.	.	.	.	.
.	.	.	.	.	.	.	.	.	.	16b\	.	.	.	.	.	.	(<16d/LL	.	.	.	.	.	.	.	.	.	.	.	.	.	.
.	.	.	.	.	.	.	.	.	.	16a#X\	.	.	.	.	.	.	16e/	.	.	.	.	.	.	.	.	.	.	.	.	.	.
.	.	.	.	.	.	.	.	.	.	16b\JJ)	.	.	.	.	.	.	16g#/JJ	.	.	.	.	.	.	.	.	.	.	.	.	.	.
4r	.	8r	.	8G#\	pro-	.	4e\	-men	.	8ee\L	.	.	.	.	.	.	8b/L	.	.	4E/ 4e/	.	.	.	4G#\ 4B\	.	.	.	.	.	.	.
.	.	8E\	.	8G#\	-fer	.	.	.	.	8dd\J	-men	.	.	.	.	.	8e/J)	.	.	.	.	.	.	.	.	.	.	.	.	.	.
*	*	*	*	*	*	*	*	*	*	*	*	*	*	*	*	*	*Xrep	*	*	*	*	*	*	*	*	*	*	*	*	*	*
=43	=43	=43	=43	=43	=43	=43	=43	=43	=43	=43	=43	=43	=43	=43	=43	=43	=43	=43	=43	=43	=43	=43	=43	=43	=43	=43	=43	=43	=43	=43	=43
*	*	*	*	*	*	*	*	*	*	*	*	*	*	*	*	*	*	*	*	*	*	*	*	*	*	*^	*	*	*	*	*
4AA/	.	4AA/	.	[>2A\	lu-	.	4.e\	cae-	.	4b#X\	cae-	.	1A	.	1c#	.	16r	.	1ryy	4r	.	1r	.	4r	.	4b#X/	1a	.	8r	.	1r	.
.	.	.	.	.	.	.	.	.	.	.	.	.	.	.	.	.	(<16c#/LL	.	.	.	.	.	.	.	.	.	.	.	.	.	.	.
.	.	.	.	.	.	.	.	.	.	.	.	.	.	.	.	.	16e/	.	.	.	.	.	.	.	.	.	.	.	8ee\L	.	.	.
.	.	.	.	.	.	.	.	.	.	.	.	.	.	.	.	.	16g#/JJ	.	.	.	.	.	.	.	.	.	.	.	.	.	.	.
4r	.	8r	.	.	.	.	.	.	.	4cc#\	-cis	.	.	.	.	.	8cc#/L	.	.	4A/ 4e/	.	.	.	4A\ 4c#\	.	2cc#/	.	.	8aa\	.	.	.
.	.	8E\	.	.	.	.	8a\	.	.	.	.	.	.	.	.	.	8e/J)	.	.	.	.	.	.	.	.	.	.	.	8ee\J	.	.	.
*	*	*	*	*	*	*	*	*	*	*	*	*	*	*	*	*	*rep	*	*	*	*	*	*	*	*	*	*	*	*	*	*	*
4A\	.	4AA/	.	(>8A\]	.	.	4e\	-cis	.	4r	.	.	.	.	.	.	16r	.	.	4r	.	.	.	4r	.	.	.	.	4ee\	.	.	.
.	.	.	.	.	.	.	.	.	.	.	.	.	.	.	.	.	(<16c#/LL	.	.	.	.	.	.	.	.	.	.	.	.	.	.	.
.	.	.	.	8c#\)	-men	.	.	.	.	.	.	.	.	.	.	.	16e/	.	.	.	.	.	.	.	.	.	.	.	.	.	.	.
.	.	.	.	.	.	.	.	.	.	.	.	.	.	.	.	.	16g#/JJ	.	.	.	.	.	.	.	.	.	.	.	.	.	.	.
4r	.	8r	.	8A\	.	.	4r	.	.	8ee\	ma-	.	.	.	.	.	8cc#/L	.	.	4A/ 4e/	.	.	.	4A\ 4c#\	.	4cc#/	.	.	4r	.	.	.
.	.	8G#\	.	16E\LL	cae-	.	.	.	.	8ee\	-la	.	.	.	.	.	8e/J)	.	.	.	.	.	.	.	.	.	.	.	.	.	.	.
.	.	.	.	16D\JJ	.	.	.	.	.	.	.	.	.	.	.	.	.	.	.	.	.	.	.	.	.	.	.	.	.	.	.	.
*	*	*	*	*	*	*	*	*	*	*	*	*	*	*	*	*	*Xrep	*	*	*	*	*	*	*	*	*	*	*	*	*	*	*
=44	=44	=44	=44	=44	=44	=44	=44	=44	=44	=44	=44	=44	=44	=44	=44	=44	=44	=44	=44	=44	=44	=44	=44	=44	=44	=44	=44	=44	=44	=44	=44	=44
*	*	*	*	*	*	*	*	*	*	*	*	*	*	*	*	*	*	*	*	*	*	*	*	*^	*	*	*	*	*	*	*	*
4C#/	.	4C#/	.	2C#/	-cis	.	4r	.	.	(>2ee\	Ma-	.	1A	.	2e/	.	16r	.	1ryy	4r	.	1r	.	4r	4ryy	.	4ee/	1e	.	1r	.	4r	.
.	.	.	.	.	.	.	.	.	.	.	.	.	.	.	.	.	(<16e/LL	.	.	.	.	.	.	.	.	.	.	.	.	.	.	.	.
.	.	.	.	.	.	.	.	.	.	.	.	.	.	.	.	.	16a/	.	.	.	.	.	.	.	.	.	.	.	.	.	.	.	.
.	.	.	.	.	.	.	.	.	.	.	.	.	.	.	.	.	16cc#/JJ	.	.	.	.	.	.	.	.	.	.	.	.	.	.	.	.
4r	.	8r	.	.	.	.	2A\	ma-	.	.	.	.	.	.	.	.	8ee/L	.	.	4A/ 4a/	.	.	.	2E/	2C#\	.	2a/	.	.	.	.	4eee\	p
.	.	8A\	.	.	.	.	.	.	.	.	.	.	.	.	.	.	8a/J)	.	.	.	.	.	.	.	.	.	.	.	.	.	.	.	.
*	*	*	*	*	*	*	*	*	*	*	*	*	*	*	*	*	*rep	*	*	*	*	*	*	*	*	*	*	*	*	*	*	*	*
4C#/	.	4C#/	.	8r	.	.	.	.	.	16ff#\LL)	.	.	.	.	2B/	.	16r	.	.	4r	.	.	.	.	.	.	.	.	.	.	.	16fff#\LL	.
.	.	.	.	.	.	.	.	.	.	16ee\	.	.	.	.	.	.	(<16e/LL	.	.	.	.	.	.	.	.	.	.	.	.	.	.	16eee\	.
.	.	.	.	4C#/	mal-	.	.	.	.	16dd\	.	.	.	.	.	.	16a/	.	.	.	.	.	.	.	.	.	.	.	.	.	.	16ddd\	.
.	.	.	.	.	.	.	.	.	.	16cc#\JJ	.	.	.	.	.	.	16cc#/JJ	.	.	.	.	.	.	.	.	.	.	.	.	.	.	16ccc#\JJ	.
4r	.	8r	.	.	.	.	4A\	-la	.	16dd\LL	.	.	.	.	.	.	8ee/L	.	.	4A/ 4a/	.	.	.	4E/	4C#\	.	4a/	.	.	.	.	16ddd\LL	.
.	.	.	.	.	.	.	.	.	.	16cc#\	.	.	.	.	.	.	.	.	.	.	.	.	.	.	.	.	.	.	.	.	.	16ccc#\	.
.	.	8C#/	.	8C#/	-la	.	.	.	.	16b\	.	.	.	.	.	.	8a/J)	.	.	.	.	.	.	.	.	.	.	.	.	.	.	16bb\	.
.	.	.	.	.	.	.	.	.	.	16a\JJ	.	.	.	.	.	.	.	.	.	.	.	.	.	.	.	.	.	.	.	.	.	16aa\JJ	.
*	*	*	*	*	*	*	*	*	*	*	*	*	*	*	*	*	*Xrep	*	*	*	*	*	*	*	*	*	*	*	*	*	*	*	*
=45	=45	=45	=45	=45	=45	=45	=45	=45	=45	=45	=45	=45	=45	=45	=45	=45	=45	=45	=45	=45	=45	=45	=45	=45	=45	=45	=45	=45	=45	=45	=45	=45	=45
!LO:TX:b:i:t=arco	!	!	!	!	!	!	!	!	!	!	!	!	!	!	!	!	!	!	!	!	!	!	!	!	!	!	!	!	!	!	!	!	!
4D\	.	4D\	.	8D\L	ma-	.	8A\L	ma-	.	8g#/L	.	.	4A/	.	4A/	.	16r	.	1ryy	4r	.	4r	.	4F#/	4D\	.	8g#/L	4d\	.	4r	.	8gg#\L	.
.	.	.	.	.	.	.	.	.	.	.	.	.	.	.	.	.	16f#/LL	.	.	.	.	.	.	.	.	.	.	.	.	.	.	.	.
.	.	.	.	8d\J	.	.	8a\J	.	.	8f#/J	-la	.	.	.	.	.	16a/	.	.	.	.	.	.	.	.	.	8f#/J	.	.	.	.	8ff#\J	.
.	.	.	.	.	.	.	.	.	.	.	.	.	.	.	.	.	16dd/JJ	.	.	.	.	.	.	.	.	.	.	.	.	.	.	.	.
4d\	.	2DD/	.	[>2d\	.	.	2a\	.	.	2ff#\	ma-	.	2D/	.	2a/	.	2ff#\	.	.	2A/ 2a/	.	2d\ 2f#\	.	2D/	2DD/	.	4ryy	2a\ 2ff#\	.	2aa\	.	(>2fff#\	.
4r	.	.	.	.	.	.	.	.	.	.	.	.	.	.	.	.	.	.	.	.	.	.	.	.	.	.	2ryy	.	.	.	.	.	.
4D\	.	4D\	.	8d\L]	.	.	8g#\	.	.	8ee\	.	.	4D/	.	8g#/L	.	8ee\L	.	.	4r	.	4r	.	4r	4ryy	.	.	8g#\L 8ee\	.	8gg#\L	.	8eee\L	.
.	.	.	.	8d\J	-la	.	8f#\	-la	.	8dd\	-la	.	.	.	8f#/J	.	8dd\J	.	.	.	.	.	.	.	.	.	.	8f#\J 8dd\	.	8ff#\J	.	8ddd\J)	.
*	*	*	*	*	*	*	*	*	*	*	*	*	*	*	*	*	*	*	*	*	*	*	*	*	*	*	*v	*v	*	*	*	*	*
=46	=46	=46	=46	=46	=46	=46	=46	=46	=46	=46	=46	=46	=46	=46	=46	=46	=46	=46	=46	=46	=46	=46	=46	=46	=46	=46	=46	=46	=46	=46	=46	=46
4E\	.	4E\	.	4.E\ 4.e\	ma-	.	8f#\L	ma-	.	8dd\L	ma-	.	8r	.	8r	.	8r	.	1ryy	4r	.	4r	.	4r	4ryy	.	8f#\L 8dd\	.	8ff#\L	.	8ddd\L	.
.	.	.	.	.	.	.	[>8e\J	.	.	[>8cc#\J	.	.	4E/	.	4e/	.	(>4cc#\	.	.	.	.	.	.	.	.	.	8e\J 8cc#\	.	8ee\J	.	8ccc#\J	.
4r	.	4r	.	.	.	.	16e\LL]	.	.	16cc#\LL]	.	.	.	.	.	.	.	.	.	4a\ 4cc#\	.	4e\	.	4E/	4EE/	.	16r	.	16r	.	16r	.
.	.	.	.	.	.	.	16c#\	.	.	16b\	.	.	.	.	.	.	.	.	.	.	.	.	.	.	.	.	16c#/LL 16a/	.	16cc#\LL	.	16aa\LL	.
.	.	.	.	8E/	.	.	16B\	.	.	16a\	.	.	8e\	.	8c#/	.	8a/)	.	.	.	.	.	.	.	.	.	16B/ 16g#/	.	16b\	.	16gg#\	.
.	.	.	.	.	.	.	16c#\JJ	.	.	16b\JJ	.	.	.	.	.	.	.	.	.	.	.	.	.	.	.	.	16c#/JJ 16a/	.	16cc#\JJ	.	16aa\JJ	.
4EE/	.	4EE/	.	2E\	.	.	8G#/	.	.	[>4ee\	.	.	8r	.	8r	.	8r	.	.	4r	.	4r	.	4r	4ryy	.	2c#/ 2g#/	.	2b\	.	(>2gg#\	.
.	.	.	.	.	.	.	4B\	.	.	.	.	.	4E/	.	4G#/	.	(<4B/	.	.	.	.	.	.	.	.	.	.	.	.	.	.	.
4r	.	4r	.	.	.	.	.	.	.	16ee\LL]	.	.	.	.	.	.	.	.	.	4e\ 4b\	.	4e\	.	4E/	4E\	.	.	.	.	.	.	.
.	.	.	.	.	.	.	.	.	.	16dd\	.	.	.	.	.	.	.	.	.	.	.	.	.	.	.	.	.	.	.	.	.	.
.	.	.	.	.	.	.	8d\	.	.	16b\	.	.	8G#/	.	8G#/	.	8e/)	.	.	.	.	.	.	.	.	.	.	.	.	.	.	.
.	.	.	.	.	.	.	.	.	.	16g#\JJ	.	.	.	.	.	.	.	.	.	.	.	.	.	.	.	.	.	.	.	.	.	.
*	*	*	*	*	*	*	*	*	*	*	*	*	*	*	*	*	*	*	*	*	*	*	*	*v	*v	*	*	*	*	*	*	*
=47	=47	=47	=47	=47	=47	=47	=47	=47	=47	=47	=47	=47	=47	=47	=47	=47	=47	=47	=47	=47	=47	=47	=47	=47	=47	=47	=47	=47	=47	=47	=47
!	!	!	!	!	!	!	!	!	!	!	!	!	!	!	!	!	!	!	!	!	!	!	!LO:DY:a	!	!	!	!	!	!	!	!
4AA/	.	4AA/	p	4A\	-la	.	2c#\	-la	.	2a\	-la	.	1A	p	1c#	.	16r	p	1ryy	1r	.	1AA 1A	pp	1r	.	4c#/ 4a/	.	4a/	.	4aa\)	.
.	.	.	.	.	.	.	.	.	.	.	.	.	.	.	.	.	(<16c#/LL	.	.	.	.	.	.	.	.	.	.	.	.	.	.
.	.	.	.	.	.	.	.	.	.	.	.	.	.	.	.	.	16e/	.	.	.	.	.	.	.	.	.	.	.	.	.	.
.	.	.	.	.	.	.	.	.	.	.	.	.	.	.	.	.	16a/JJ	.	.	.	.	.	.	.	.	.	.	.	.	.	.
4r	.	8r	.	2A\	no-	.	.	.	.	.	.	.	.	.	.	.	8cc#/L	.	.	.	.	.	.	.	.	4r	.	4r	.	4r	.
.	.	8E\	.	.	.	.	.	.	.	.	.	.	.	.	.	.	8e/J)	.	.	.	.	.	.	.	.	.	.	.	.	.	.
*	*	*	*	*	*	*	*	*	*	*	*	*	*	*	*	*	*rep	*	*	*	*	*	*	*	*	*	*	*	*	*	*
4AA/	.	4AA/	.	.	.	.	2r	.	.	2r	.	.	.	.	.	.	16r	.	.	.	.	.	.	.	.	2r	.	2r	.	2r	.
.	.	.	.	.	.	.	.	.	.	.	.	.	.	.	.	.	(<16c#/LL	.	.	.	.	.	.	.	.	.	.	.	.	.	.
.	.	.	.	.	.	.	.	.	.	.	.	.	.	.	.	.	16e/	.	.	.	.	.	.	.	.	.	.	.	.	.	.
.	.	.	.	.	.	.	.	.	.	.	.	.	.	.	.	.	16a/JJ	.	.	.	.	.	.	.	.	.	.	.	.	.	.
4r	.	8r	.	(>16B\LL	.	.	.	.	.	.	.	.	.	.	.	.	8cc#/L	.	.	.	.	.	.	.	.	.	.	.	.	.	.
.	.	.	.	16A\)	.	.	.	.	.	.	.	.	.	.	.	.	.	.	.	.	.	.	.	.	.	.	.	.	.	.	.
.	.	8E\	.	(>16G#\	.	.	.	.	.	.	.	.	.	.	.	.	8e/J)	.	.	.	.	.	.	.	.	.	.	.	.	.	.
.	.	.	.	16A\JJ)	.	.	.	.	.	.	.	.	.	.	.	.	.	.	.	.	.	.	.	.	.	.	.	.	.	.	.
*	*	*	*	*	*	*	*	*	*	*	*	*	*	*	*	*	*Xrep	*	*	*	*	*	*	*	*	*	*	*	*	*	*
=48	=48	=48	=48	=48	=48	=48	=48	=48	=48	=48	=48	=48	=48	=48	=48	=48	=48	=48	=48	=48	=48	=48	=48	=48	=48	=48	=48	=48	=48	=48	=48
4AA/	.	4AA/	.	2.Gn\	.	.	4r	.	.	1r	.	.	1Gn	.	1c#	.	16r	.	1ryy	1r	.	1AA 1A	.	1Gn	.	1r	.	2.ee\	.	1r	.
.	.	.	.	.	.	.	.	.	.	.	.	.	.	.	.	.	16gn/LL	.	.	.	.	.	.	.	.	.	.	.	.	.	.
.	.	.	.	.	.	.	.	.	.	.	.	.	.	.	.	.	16a/	.	.	.	.	.	.	.	.	.	.	.	.	.	.
.	.	.	.	.	.	.	.	.	.	.	.	.	.	.	.	.	16cc#/JJ	.	.	.	.	.	.	.	.	.	.	.	.	.	.
4r	.	8r	.	.	.	.	2e\	nos-	.	.	.	.	.	.	.	.	8ee/L	.	.	.	.	.	.	.	.	.	.	.	.	.	.
.	.	8Gn\	.	.	.	.	.	.	.	.	.	.	.	.	.	.	8g/J	.	.	.	.	.	.	.	.	.	.	.	.	.	.
*	*	*	*	*	*	*	*	*	*	*	*	*	*	*	*	*	*rep	*	*	*	*	*	*	*	*	*	*	*	*	*	*
4AA/	.	4AA/	.	.	.	.	.	.	.	.	.	.	.	.	.	.	16r	.	.	.	.	.	.	.	.	.	.	.	.	.	.
.	.	.	.	.	.	.	.	.	.	.	.	.	.	.	.	.	16g/LL	.	.	.	.	.	.	.	.	.	.	.	.	.	.
.	.	.	.	.	.	.	.	.	.	.	.	.	.	.	.	.	16a/	.	.	.	.	.	.	.	.	.	.	.	.	.	.
.	.	.	.	.	.	.	.	.	.	.	.	.	.	.	.	.	16cc#/JJ	.	.	.	.	.	.	.	.	.	.	.	.	.	.
4r	.	8r	.	4G\	-stra	.	16f#\LL	.	.	.	.	.	.	.	.	.	8ee/L	.	.	.	.	.	.	.	.	.	.	16ff#\LL	.	.	.
.	.	.	.	.	.	.	16e\	.	.	.	.	.	.	.	.	.	.	.	.	.	.	.	.	.	.	.	.	16ee\	.	.	.
.	.	8G\	.	.	.	.	16c#\	.	.	.	.	.	.	.	.	.	8g/J	.	.	.	.	.	.	.	.	.	.	16cc#\	.	.	.
.	.	.	.	.	.	.	16B\JJ	-stra	.	.	.	.	.	.	.	.	.	.	.	.	.	.	.	.	.	.	.	16a\JJ	.	.	.
*	*	*	*	*	*	*	*	*	*	*	*	*	*	*	*	*	*Xrep	*	*	*	*	*	*	*	*	*	*	*	*	*	*
=49	=49	=49	=49	=49	=49	=49	=49	=49	=49	=49	=49	=49	=49	=49	=49	=49	=49	=49	=49	=49	=49	=49	=49	=49	=49	=49	=49	=49	=49	=49	=49
4AA/	.	4AA/	.	2.F#\	pel-	.	2.d\	pel-	.	4r	.	.	1F#	.	1d	.	16r	.	1ryy	1r	.	1AA 1A	.	2.F#\	.	1a	.	1dd	.	2.aa\	.
.	.	.	.	.	.	.	.	.	.	.	.	.	.	.	.	.	16f#/LL	.	.	.	.	.	.	.	.	.	.	.	.	.	.
.	.	.	.	.	.	.	.	.	.	.	.	.	.	.	.	.	16a/	.	.	.	.	.	.	.	.	.	.	.	.	.	.
.	.	.	.	.	.	.	.	.	.	.	.	.	.	.	.	.	16cc#/JJ	.	.	.	.	.	.	.	.	.	.	.	.	.	.
4r	.	8r	.	.	.	.	.	.	.	2a\	Ma-	.	.	.	.	.	8ff#\L	.	.	.	.	.	.	.	.	.	.	.	.	.	.
.	.	8F#\	.	.	.	.	.	.	.	.	.	.	.	.	.	.	8a\J	.	.	.	.	.	.	.	.	.	.	.	.	.	.
*	*	*	*	*	*	*	*	*	*	*	*	*	*	*	*	*	*rep	*	*	*	*	*	*	*	*	*	*	*	*	*	*
4AA/	.	4AA/	.	.	.	.	.	.	.	.	.	.	.	.	.	.	16r	.	.	.	.	.	.	.	.	.	.	.	.	.	.
.	.	.	.	.	.	.	.	.	.	.	.	.	.	.	.	.	16f#/LL	.	.	.	.	.	.	.	.	.	.	.	.	.	.
.	.	.	.	.	.	.	.	.	.	.	.	.	.	.	.	.	16a/	.	.	.	.	.	.	.	.	.	.	.	.	.	.
.	.	.	.	.	.	.	.	.	.	.	.	.	.	.	.	.	16cc#/JJ	.	.	.	.	.	.	.	.	.	.	.	.	.	.
4r	.	8r	.	4D\	-le	.	4d\	-le	.	(>16dd\LL	.	.	.	.	.	.	8ff#\L	.	.	.	.	.	.	4D\	.	.	.	.	.	(>16ddd\LL	.
.	.	.	.	.	.	.	.	.	.	16cc#\	.	.	.	.	.	.	.	.	.	.	.	.	.	.	.	.	.	.	.	16ccc#\	.
.	.	8F#\	.	.	.	.	.	.	.	16dd\	.	.	.	.	.	.	8a\J	.	.	.	.	.	.	.	.	.	.	.	.	16ddd\	.
.	.	.	.	.	.	.	.	.	.	16ee\JJ)	-la	.	.	.	.	.	.	.	.	.	.	.	.	.	.	.	.	.	.	16eee\JJ)	.
*	*	*	*	*	*	*	*	*	*	*	*	*	*	*	*	*	*Xrep	*	*	*	*	*	*	*	*	*	*	*	*	*	*
!!LO:PB:g=original
=50	=50	=50	=50	=50	=50	=50	=50	=50	=50	=50	=50	=50	=50	=50	=50	=50	=50	=50	=50	=50	=50	=50	=50	=50	=50	=50	=50	=50	=50	=50	=50
4AA/	.	4AA/	.	4D\	ma-	.	4G#/	ma-	.	2.ffn\	no-	.	1Fn	.	1B 1d	.	16r	.	1ryy	1ryy	.	1G# 1g#	.	1B	.	1d 1fX	.	1g#X	.	2fffn\	.
.	.	.	.	.	.	.	.	.	.	.	.	.	.	.	.	.	(>16g#X\LL	.	.	.	.	.	.	.	.	.	.	.	.	.	.
.	.	.	.	.	.	.	.	.	.	.	.	.	.	.	.	.	16b\	.	.	.	.	.	.	.	.	.	.	.	.	.	.
.	.	.	.	.	.	.	.	.	.	.	.	.	.	.	.	.	16dd\JJ	.	.	.	.	.	.	.	.	.	.	.	.	.	.
!!mixed beam:problem
!	!	!	!	!	!	!	!	!	!	!	!	!	!	!	!	!	!LO:TX:t=P:problem:mixed beam	!	!	!	!	!	!	!	!	!	!	!	!	!	!
4r	.	8r	.	2B\	-la	.	2d\	-la	.	.	.	.	.	.	.	.	8ffn\L	.	.	.	.	.	.	.	.	.	.	.	.	.	.
.	.	8Fn\	.	.	.	.	.	.	.	.	.	.	.	.	.	.	8g#/J)	.	.	.	.	.	.	.	.	.	.	.	.	.	.
*	*	*	*	*	*	*	*	*	*	*	*	*	*	*	*	*	*rep	*	*	*	*	*	*	*	*	*	*	*	*	*	*
4AA/	.	4AA/	.	.	.	.	.	.	.	.	.	.	.	.	.	.	16r	.	.	.	.	.	.	.	.	.	.	.	.	2r	.
.	.	.	.	.	.	.	.	.	.	.	.	.	.	.	.	.	(>16g#X\LL	.	.	.	.	.	.	.	.	.	.	.	.	.	.
.	.	.	.	.	.	.	.	.	.	.	.	.	.	.	.	.	16b\	.	.	.	.	.	.	.	.	.	.	.	.	.	.
.	.	.	.	.	.	.	.	.	.	.	.	.	.	.	.	.	16dd\JJ	.	.	.	.	.	.	.	.	.	.	.	.	.	.
4r	.	8r	.	4B\	no-	.	4fn\	no-	.	4g#X\	.	.	.	.	.	.	8ff\L	.	.	.	.	.	.	.	.	.	.	.	.	.	.
.	.	16F\LL	.	.	.	.	.	.	.	.	.	.	.	.	.	.	8g#\J)	.	.	.	.	.	.	.	.	.	.	.	.	.	.
.	.	16E\JJ	.	.	.	.	.	.	.	.	.	.	.	.	.	.	.	.	.	.	.	.	.	.	.	.	.	.	.	.	.
*	*	*	*	*	*	*	*	*	*	*	*	*	*	*	*	*	*Xrep	*	*	*	*	*	*	*	*	*	*	*	*	*	*
=51	=51	=51	=51	=51	=51	=51	=51	=51	=51	=51	=51	=51	=51	=51	=51	=51	=51	=51	=51	=51	=51	=51	=51	=51	=51	=51	=51	=51	=51	=51	=51
*	*	*	*	*	*	*	*	*	*	*	*	*	*	*	*	*	*	*	*	*	*	*	*	*	*	*^	*	*	*	*	*
4AA/	pp	4AA/	pp	2c#\	-stra	.	2e\	-stra	.	2a\	-stra	.	1A	pp	1c#	.	16r	pp	1ryy	1ryy	.	4AA/ 4A/	.	4A\	.	2a/	4c#\	.	4a/	.	2cc#\	.
.	.	.	.	.	.	.	.	.	.	.	.	.	.	.	.	.	(>16a\LL	.	.	.	.	.	.	.	.	.	.	.	.	.	.	.
.	.	.	.	.	.	.	.	.	.	.	.	.	.	.	.	.	16cc#\	.	.	.	.	.	.	.	.	.	.	.	.	.	.	.
.	.	.	.	.	.	.	.	.	.	.	.	.	.	.	.	.	16ee\JJ	.	.	.	.	.	.	.	.	.	.	.	.	.	.	.
!!mixed beam:problem
!	!	!	!	!	!	!	!	!	!	!	!	!	!	!	!	!	!LO:TX:t=P:problem:mixed beam	!	!	!	!	!	!	!	!	!	!	!	!	!	!	!
4r	.	8r	.	.	.	.	.	.	.	.	.	.	.	.	.	.	8aa\L	.	.	.	.	4r	.	4r	.	.	4r	.	4r	.	.	.
.	.	8E\	.	.	.	.	.	.	.	.	.	.	.	.	.	.	8a/J)	.	.	.	.	.	.	.	.	.	.	.	.	.	.	.
4AA/	.	4AA/	.	2r	.	.	2r	.	.	2r	.	.	.	.	.	.	16r	.	.	.	.	2r	.	2r	.	16b/LL	2r	.	2r	.	16dd\LL	.
.	.	.	.	.	.	.	.	.	.	.	.	.	.	.	.	.	(<16c#/LL	.	.	.	.	.	.	.	.	16a/	.	.	.	.	16cc#\	.
.	.	.	.	.	.	.	.	.	.	.	.	.	.	.	.	.	16e/	.	.	.	.	.	.	.	.	16g#/	.	.	.	.	16b\	.
.	.	.	.	.	.	.	.	.	.	.	.	.	.	.	.	.	16a/JJ	.	.	.	.	.	.	.	.	16a/JJ	.	.	.	.	16cc#\JJ	.
4r	.	8r	.	.	.	.	.	.	.	.	.	.	.	.	.	.	8cc#/L	.	.	.	.	.	.	.	.	8ff#/L	.	.	.	.	8dd\L	.
.	.	8E\	.	.	.	.	.	.	.	.	.	.	.	.	.	.	8e/J)	.	.	.	.	.	.	.	.	8ee/J	.	.	.	.	8cc#\J	.
*	*	*	*	*	*	*	*	*	*	*	*	*	*	*	*	*	*	*	*	*	*	*	*	*	*	*v	*v	*	*	*	*	*
=52	=52	=52	=52	=52	=52	=52	=52	=52	=52	=52	=52	=52	=52	=52	=52	=52	=52	=52	=52	=52	=52	=52	=52	=52	=52	=52	=52	=52	=52	=52	=52
4E\	.	4G#\	.	1r	.	.	1r	.	.	2b\	bo-	.	1B	.	1d	.	16r	.	1ryy	1ryy	.	1r	.	1E 1G#	.	2ee/	.	1r	.	4b\	.
.	.	.	.	.	.	.	.	.	.	.	.	.	.	.	.	.	(<16d/LL	.	.	.	.	.	.	.	.	.	.	.	.	.	.
.	.	.	.	.	.	.	.	.	.	.	.	.	.	.	.	.	16e/	.	.	.	.	.	.	.	.	.	.	.	.	.	.
.	.	.	.	.	.	.	.	.	.	.	.	.	.	.	.	.	16g#/JJ	.	.	.	.	.	.	.	.	.	.	.	.	.	.
4r	.	8r	.	.	.	.	.	.	.	.	.	.	.	.	.	.	8b/L	.	.	.	.	.	.	.	.	.	.	.	.	4ee\	.
.	.	8E\	.	.	.	.	.	.	.	.	.	.	.	.	.	.	8e/J)	.	.	.	.	.	.	.	.	.	.	.	.	.	.
*	*	*	*	*	*	*	*	*	*	*	*	*	*	*	*	*	*rep	*	*	*	*	*	*	*	*	*	*	*	*	*	*
4EE/	.	4e\	.	.	.	.	.	.	.	16cc#\LL	.	.	.	.	.	.	16r	.	.	.	.	.	.	.	.	2r	.	.	.	2r	.
.	.	.	.	.	.	.	.	.	.	16b\	.	.	.	.	.	.	(<16d/LL	.	.	.	.	.	.	.	.	.	.	.	.	.	.
.	.	.	.	.	.	.	.	.	.	16a#X\	.	.	.	.	.	.	16e/	.	.	.	.	.	.	.	.	.	.	.	.	.	.
.	.	.	.	.	.	.	.	.	.	16b\JJ	.	.	.	.	.	.	16g#/JJ	.	.	.	.	.	.	.	.	.	.	.	.	.	.
4r	.	8r	.	.	.	.	.	.	.	8ff#\L	.	.	.	.	.	.	8b/L	.	.	.	.	.	.	.	.	.	.	.	.	.	.
.	.	8E\	.	.	.	.	.	.	.	8ee\J	.	.	.	.	.	.	8e/J)	.	.	.	.	.	.	.	.	.	.	.	.	.	.
*	*	*	*	*	*	*	*	*	*	*	*	*	*	*	*	*	*Xrep	*	*	*	*	*	*	*	*	*	*	*	*	*	*
=53	=53	=53	=53	=53	=53	=53	=53	=53	=53	=53	=53	=53	=53	=53	=53	=53	=53	=53	=53	=53	=53	=53	=53	=53	=53	=53	=53	=53	=53	=53	=53
*	*	*	*	*	*	*	*	*	*	*	*	*	*	*	*	*	*	*	*	*	*	*	*	*	*	*	*	*^	*	*	*
!	!	!	!	!	!	!	!	!	!	!	!	!	!	!	!LO:N:vis=2.	!	!	!	!	!	!	!	!	!	!	!	!	!	!	!	!	!
4AA/	.	4AA/	.	2A\	bo-	.	2c#\	bo-	.	2.ee\	-na	.	2A/	.	2c#/	.	16r	.	1ryy	1c# 1cc#	.	1AA 1A	.	4A\	.	2A/ 2c#/	.	2cc#/	2a\	.	1r	.
.	.	.	.	.	.	.	.	.	.	.	.	.	.	.	.	.	(<16c#/LL	.	.	.	.	.	.	.	.	.	.	.	.	.	.	.
.	.	.	.	.	.	.	.	.	.	.	.	.	.	.	.	.	16e/	.	.	.	.	.	.	.	.	.	.	.	.	.	.	.
.	.	.	.	.	.	.	.	.	.	.	.	.	.	.	.	.	16a/JJ	.	.	.	.	.	.	.	.	.	.	.	.	.	.	.
4r	.	8r	.	.	.	.	.	.	.	.	.	.	.	.	.	.	8cc#/L	.	.	.	.	.	.	8r	.	.	.	.	.	.	.	.
.	.	8E\	.	.	.	.	.	.	.	.	.	.	.	.	.	.	8e/J)	.	.	.	.	.	.	8E\	.	.	.	.	.	.	.	.
4A\	.	4AA/	.	16B\LL	.	.	16d\LL	.	.	.	.	.	16B/LL	.	16d/LL	.	16r	.	.	.	.	.	.	4AA/	.	16B/LL 16d/	.	16dd\LL	16b\LL	.	.	.
.	.	.	.	16A\	.	.	16c#\	.	.	.	.	.	16A/	.	16c#/	.	(>16cc#\LL	.	.	.	.	.	.	.	.	16A/ 16c#/	.	16cc#\	16a\	.	.	.
.	.	.	.	16G#\	.	.	16B\	.	.	.	.	.	16G#/	.	16B/	.	16ee\	.	.	.	.	.	.	.	.	16G#/ 16B/	.	16b\	16g#\	.	.	.
.	.	.	.	16A\JJ	.	.	16c#\JJ	.	.	.	.	.	16A/JJ	.	16c#/JJ	.	16aa\JJ	.	.	.	.	.	.	.	.	16A/JJ 16c#/	.	16cc#\JJ	16a\JJ	.	.	.
4r	.	8r	.	8.e\	.	.	8.g#\	.	.	8.r	.	.	8e\L	.	8g#/L	.	8ccc#\L	.	.	.	.	.	.	8r	.	8.e/L 8.g#X/	.	8.gg#\L	8.ee\L	.	.	.
.	.	8A\	.	.	.	.	.	.	.	.	.	.	8d\J	.	8f#/J	.	8ee\J)	.	.	.	.	.	.	8A\	.	.	.	.	.	.	.	.
.	.	.	.	16d\	-na	.	16g#\	-na	.	[>16ee\	cun-	.	.	.	.	.	.	.	.	.	.	.	.	.	.	16d/Jk 16f#/	.	16ff#\Jk	16dd\Jk	.	.	.
=54	=54	=54	=54	=54	=54	=54	=54	=54	=54	=54	=54	=54	=54	=54	=54	=54	=54	=54	=54	=54	=54	=54	=54	=54	=54	=54	=54	=54	=54	=54	=54	=54
*	*	*	*	*	*	*	*	*	*	*	*	*	*	*	*	*	*	*	*	*	*	*^	*	*	*	*	*	*	*	*	*	*
4E\	.	8E\	.	4c#\	cun-	.	4e\	cun-	.	4ee\]	.	.	8c#/	.	8e/	.	8e/	.	1r	8G#/ 8g#/	.	8e/	8e\	.	8E\	.	8a\ 8cc#\	.	8ee/	8ee\	.	4r	.
.	.	8r	.	.	.	.	.	.	.	.	.	.	8r	.	8r	.	8r	.	.	8r	.	8r	8ryy	.	8r	.	8r	.	8r	8ryy	.	.	.
4EE/	.	2.E^>\	.	2B#X\	-cta	.	2d#X\	-cta	.	2ff#\	-cta	.	2cn\	.	2d#X/	.	2f#/	.	.	2.G#/ 2.g#/	.	2.e\	2.ryy	.	2EE/	.	2g#\ 2ccX\	.	2ff#/	2dd#X\	.	2aa\ 2ddd\	.
2r	.	.	.	.	.	.	.	.	.	.	.	.	.	.	.	.	.	.	.	.	.	.	.	.	.	.	.	.	.	.	.	.	.
.	.	.	.	4Bn\	cun-	.	4dn\	.	.	4g#\ 4gg#\	.	.	4B/	.	4cn/	.	4g#/	.	.	.	.	.	.	.	4E\	.	4g#\ 4b\	.	4gg#t>\	4dd#\	.	4r	.
*	*	*	*	*	*	*	*	*	*	*	*	*	*	*	*	*	*	*	*	*	*	*v	*v	*	*	*	*	*	*	*	*	*	*
*	*	*	*	*	*	*	*	*	*	*	*	*	*	*	*	*	*	*	*	*	*	*	*	*	*	*	*	*v	*v	*	*	*
.	.	.	.	.	.	.	.	.	.	16qqf#/LL 16qqff#/	.	.	.	.	.	.	.	.	.	.	.	.	.	.	.	.	.	16qqff#/LL	.	.	.
.	.	.	.	.	.	.	.	.	.	16qqg#/JJ 16qqgg#/	.	.	.	.	.	.	.	.	.	.	.	.	.	.	.	.	.	16qqgg#/JJ	.	.	.
=55	=55	=55	=55	=55	=55	=55	=55	=55	=55	=55	=55	=55	=55	=55	=55	=55	=55	=55	=55	=55	=55	=55	=55	=55	=55	=55	=55	=55	=55	=55	=55
*	*	*	*	*	*	*	*	*	*	*	*	*	*	*	*	*	*	*	*	*	*	*	*	*	*	*	*	*	*	*8va	*
4AA/	.	4AA/	.	2.A\	-cta	.	1c#	.	.	1a 1aa	.	.	8A/	.	8c#/	.	8a/	.	1r	4r	pp	4r	.	4r	.	1e 1a	.	1cc# 1aa	.	1aa 1aaa	pp
.	.	.	.	.	.	.	.	.	.	.	.	.	8r	.	8r	.	8r	.	.	.	.	.	.	.	.	.	.	.	.	.	.
4r	.	2A\	.	.	.	.	.	.	.	.	.	.	2a\	.	(<2a/	.	(>2aa\	.	.	[<2.c#/ [>2.e/	.	2.AA/ 2.A/	.	2A\	.	.	.	.	.	.	.
2r	.	.	.	.	.	.	.	.	.	.	.	.	.	.	.	.	.	.	.	.	.	.	.	.	.	.	.	.	.	.	.
.	.	16B\LL	.	(>16B\LL	.	.	.	.	.	.	.	.	(>16b\LL	.	16b/LL	.	16bb\LL	.	.	.	.	.	.	16B\LL	.	.	.	.	.	.	.
.	.	16A\	.	16A\	.	.	.	.	.	.	.	.	16a\	.	16a/	.	16aa\	.	.	.	.	.	.	16A\	.	.	.	.	.	.	.
.	.	16G#X\	.	16G#X\	.	.	.	.	.	.	.	.	16g#\	.	16g#/	.	16gg#\	.	.	.	.	.	.	16G#\	.	.	.	.	.	.	.
.	.	16A\JJ	.	16A\JJ)	.	.	.	.	.	.	.	.	16a\JJ)	.	16a/JJ)	.	16aa\JJ)	.	.	.	.	.	.	16A\JJ	.	.	.	.	.	.	.
=56	=56	=56	=56	=56	=56	=56	=56	=56	=56	=56	=56	=56	=56	=56	=56	=56	=56	=56	=56	=56	=56	=56	=56	=56	=56	=56	=56	=56	=56	=56	=56
4c#\	.	8c#\	.	(>4c#\	.	.	1c#	.	.	1a 1aa	.	.	8cc#\	.	8cc#/	.	8ccc#\	.	1r	1c#_< 1e_>	.	1AA 1A	.	8c#\	.	1e 1a	.	1cc# 1aa	.	1aa 1aaa	.
.	.	8r	.	.	.	.	.	.	.	.	.	.	8r	.	8r	.	8r	.	.	.	.	.	.	8r	.	.	.	.	.	.	.
4A\	.	8A\	.	4A\	.	.	.	.	.	.	.	.	8a\	.	8a/	.	8aa\	.	.	.	.	.	.	8A\	.	.	.	.	.	.	.
.	.	8r	.	.	.	.	.	.	.	.	.	.	8r	.	8r	.	8r	.	.	.	.	.	.	8r	.	.	.	.	.	.	.
4E\	.	8E\	.	4E\)	pos-	.	.	.	.	.	.	.	8e\	.	8e/	.	8ee\	.	.	.	.	.	.	8E\	.	.	.	.	.	.	.
.	.	8r	.	.	.	.	.	.	.	.	.	.	8r	.	8r	.	8r	.	.	.	.	.	.	8r	.	.	.	.	.	.	.
4C#\	.	8C#/	.	4C#\	.	.	.	.	.	.	.	.	8c#\	.	8c#/	.	8cc#\	.	.	.	.	.	.	8C#/	.	.	.	.	.	.	.
.	.	8r	.	.	.	.	.	.	.	.	.	.	8r	.	8r	.	8r	.	.	.	.	.	.	8r	.	.	.	.	.	.	.
*	*	*	*	*	*	*	*	*	*	*	*	*	*	*	*	*	*	*	*	*	*	*	*	*	*	*	*	*	*	*X8va	*
=57	=57	=57	=57	=57	=57	=57	=57	=57	=57	=57	=57	=57	=57	=57	=57	=57	=57	=57	=57	=57	=57	=57	=57	=57	=57	=57	=57	=57	=57	=57	=57
4AA/	.	4AA/	.	4AA/	-ce	.	4c#\	.	.	4a\ 4aa\	.	.	4A/	.	4A/	.	4a/	.	1r	1c#_< 1e_>	.	4AA/ 4A/	.	4AA/	.	1e 1a	.	4cc#\ 4aa\	.	4cc#\ 4aa\	.
4r	.	4r	.	4r	.	.	4r	.	.	4r	.	.	4r	.	4r	.	4r	.	.	.	.	4r	.	4r	.	.	.	4r	.	4r	.
!LO:TX:b:i:t=pizz	!	!LO:TX:b:i:t=pizz	!	!	!	!	!	!	!	!	!	!	!	!	!	!	!	!	!	!	!	!	!	!	!	!	!	!	!	!	!
4A\	.	4A\	.	2r	.	.	2r	.	.	2r	.	.	4a\	.	4A/	.	4a/	.	.	.	.	2r	.	4A\	.	.	.	4cc#\ 4aa\	.	4cc#\ 4aa\	.
4r	.	4r	.	.	.	.	.	.	.	.	.	.	4r	.	4r	.	4r	.	.	.	.	.	.	4r	.	.	.	4r	.	4r	.
=58	=58	=58	=58	=58	=58	=58	=58	=58	=58	=58	=58	=58	=58	=58	=58	=58	=58	=58	=58	=58	=58	=58	=58	=58	=58	=58	=58	=58	=58	=58	=58
4AA/	.	4AA/	.	1r	.	.	1r	.	.	1r	.	.	4A/	.	4A/	.	4a/	.	1r	4c#/] 4e/]	.	1r	.	4AA/	.	4e/ 4a/	.	4cc#\ 4aa\	.	4cc#\ 4aa\	.
4r	.	4r	.	.	.	.	.	.	.	.	.	.	4r	.	4r	.	4r	.	.	4r	.	.	.	4r	.	4r	.	4r	.	4r	.
2r	.	2r	.	.	.	.	.	.	.	.	.	.	2r	.	2r	.	2r	.	.	2r	.	.	.	2r	.	2r	.	2r	.	2r	.
==	==	==	==	==	==	==	==	==	==	==	==	==	==	==	==	==	==	==	==	==	==	==	==	==	==	==	==	==	==	==	==
*-	*-	*-	*-	*-	*-	*-	*-	*-	*-	*-	*-	*-	*-	*-	*-	*-	*-	*-	*-	*-	*-	*-	*-	*-	*-	*-	*-	*-	*-	*-	*-
!!!system-decoration: s1,s2,s3,s4,s5,s6,s7,s8,s9,s10,s11,s12,s13,s14,s15
!!!ENC:Anastazja Marusiak
!!!END:2020-08-18
!!!EED: Jędrzej Mróz
!!!ESR: 2021-11-04
!!!RDF**kern: > = above
!!!RDF**kern: < = below
